!!!COM: Bach, Johann Sebastian
!!!OPR: Six Concerts Avec plusieurs ... le prince regnant d'Anhalt-Coethen
!!!OTL: Brandenburgische Konzerte B
!!!XEN: Brandenburg Concerto No. 6 in B-flat major.
!!!OMV: Movement 3.
!!!SCT: BWV 1051
!!!YEC: Copyright 1994, Center for Computer Assisted Research in the Humanities
!!!YEM: Rights to all derivative electronic formats reserved.
!!!YEM: Refer to licensing agreement for further details.
!! For the following instrumentation: Viola da braccio I & II,
!!    Viola da gamba I & II, Violoncello, Violone, Cembalo.
!! Allegro.
**kern	**kern	**kern	**kern	**kern	**kern	**kern
*ICklav	*ICstr	*ICstr	*ICstr	*ICstr	*ICstr	*ICstr
*Icemba	*Icbass	*Icello	*Iviolt	*Iviolt	*Iviola	*Iviola
*IGcont	*IGcont	*	*	*	*	*
!cemba	!v'lone	!'cello	!vla'g2	!vla'g1	!vla'b2	!vla'b1
*k[b-e-]	*k[b-e-]	*k[b-e-]	*k[b-e-]	*k[b-e-]	*k[b-e-]	*k[b-e-]
*B-:	*B-:	*B-:	*B-:	*B-:	*B-:	*B-:
*M12/8	*M12/8	*M12/8	*M12/8	*M12/8	*M12/8	*M12/8
*MM82	*MM82	*MM82	*MM82	*MM82	*MM82	*MM82
*clefF4	*clefF4	*clefF4	*clefC4	*clefC4	*clefC3	*clefC3
8r	8r	8r	8r	8r	8f\	8f\
=1	=1	=1	=1	=1	=1	=1
4B-\	4BB-\	4B-\	4d\	4f\	(8b-\L	(8b-\L
.	.	.	.	.	8a\)	8a\)
8r	8r	8r	8r	8r	8b-\J	8b-\J
4A\	4AA\	4A\	4B-\	4f\	(8d\L	(8d\L
.	.	.	.	.	8f\)	8f\)
8r	8r	8r	8r	8r	8b-\J	8b-\J
4G\	4GG\	4G\	4d\	4g\	(8b-\L	(8b-\L
.	.	.	.	.	8a\)	8a\)
8r	8r	8r	8r	8r	8b-\J	8b-\J
4F\	4FF\	4F\	4f\	4b-\	(8d\L	(8d\L
.	.	.	.	.	8f\)	8f\)
8r	8r	8r	8r	8r	8b-\J	8b-\J
=2	=2	=2	=2	=2	=2	=2
4E-\	4EE-\	4E-\	4g\	4b-\	(8cc\L	(8cc\L
.	.	.	.	.	8b-\)	8b-\)
8r	8r	8r	8r	8r	8cc\J	8cc\J
4F\	4FF\	4F\	4f\	4a\	(8f\L	(8f\L
.	.	.	.	.	8a\)	8a\)
8r	8r	8r	8r	8r	8cc\J	8cc\J
4BB-/	4BBB-/	4BB-/	(8f\L	(8b-\L	(8dd\L	(8dd\L
.	.	.	8e-\)	8a\)	8cc\)	8cc\)
8F\	8FF\	8F\	8f\J	8b-\J	8dd\J	8dd\J
(8B-\L	(8BB-\L	(8B-\L	(8d\L	4f\	4b-\	4b-\
8A\)	8AA\)	8A\)	8c\)	.	.	.
8B-\J	8BB-\J	8B-\J	8d\J	8f\	[8dd\	[8dd\
=3	=3	=3	=3	=3	=3	=3
4E\	4EE\	4E\	4G/	4g\	8dd\L]	8dd\L]
.	.	.	.	.	8g\	8g\
8r	8r	8r	8r	8r	[8b-\J	[8b-\J
4C/	4CC/	4C/	4e\	4g\	8b-\L]	8b-\L]
.	.	.	.	.	8e\	8e\
8r	8r	8r	8r	8r	[8cc\J	[8cc\J
4D\	4DD\	4D\	4A\	4f\	8cc\L]	8cc\L]
.	.	.	.	.	8f\	8f\
8r	8r	8r	8r	8r	[8a\J	[8a\J
4BB-/	4BBB-/	4BB-/	4d\	4f\	8a\L]	8a\L]
.	.	.	.	.	8d\	8d\
8r	8r	8r	8r	8r	[8b-\J	[8b-\J
=4	=4	=4	=4	=4	=4	=4
4C/	4CC/	4C/	4G/	4e\	8b-\L]	8b-\L]
.	.	.	.	.	8e\	8e\
8BB-/	8BBB-/	8BB-/	8E/	8c\	[8g\J	[8g\J
4AA/	4AAA/	4AA/	4A\	4c\	8g\L]	8g\L]
.	.	.	.	.	8c\	8c\
8GG/	8GGG/	8GG/	8B-\	8e\	8b-\J	8b-\J
4FF/	4FFF/	4FF/	(8c\L	(8f\L	(8a\L	(8a\L
.	.	.	8B-\)	8e\)	8g\)	8g\)
8C/	8CC/	8C/	8c\J	8f\J	8a\J	8a\J
(8F\L	(8FF\L	(8F\L	(8A/L	4c\	(8f\L	(8f\L
8E-\)	8EE-\)	8E-\)	8G/)	.	8a\)	8a\)
8F\J	8FF\J	8F\J	8A/J	8f\	8cc\J	8cc\J
=5	=5	=5	=5	=5	=5	=5
4D\	4DD\	4D\	4B-\	4f\	8ff\L	8ff\L
.	.	.	.	.	8b-\	8b-\
8r	8r	8r	8r	8r	[8dd\J	[8dd\J
4G\	4GG\	4G\	4B-\	4f\	8dd\L]	8dd\L]
.	.	.	.	.	8g\	8g\
8r	8r	8r	8r	8r	[8ee-\J	[8ee-\J
4C/	4CC/	4C/	4B-\	4e-\	8ee-\L]	8ee-\L]
.	.	.	.	.	8a\	8a\
8r	8r	8r	8r	8r	[8cc\J	[8cc\J
4F\	4FF\	4F\	4A\	4f\	8cc\L]	8cc\L]
.	.	.	.	.	8f\	8f\
8r	8r	8r	8r	8r	[8dd\J	[8dd\J
=6	=6	=6	=6	=6	=6	=6
4BB-/	4BBB-/	4BB-/	4B-\	8f\L	8dd\L]	8dd\L]
.	.	.	.	8d\	8f\	8f\
8B-\	8BB-\	8B-\	8d\	8f\J	[8b-\J	[8b-\J
4BB-/	4BBB-/	4BB-/	4F/	8d\L	8b-\L]	8b-\L]
.	.	.	.	8B-\	8d\	8d\
8B-\	8BB-\	8B-\	8B-\	8d\J	[8f\J	[8f\J
4BB-/	4BBB-/	4BB-/	8D/L	8B-\L	8f\L]	8f\L]
.	.	.	8F/	8d\	8B-\	8B-\
8B-\	8BB-\	8B-\	8B-/J	8f\J	8d\J	8d\J
4BB-/	4BBB-/	4BB-/	8d\L	8b-\L	8f\L	8f\L
.	.	.	8B-\	8f\	8d\	8d\
8B-\	8BB-\	8B-\	8d\J	8b-\J	8f\J	8f\J
=7	=7	=7	=7	=7	=7	=7
4BB-/	4BBB-/	4BB-/	4f\	4d\	8b-\L	8b-\L
.	.	.	.	.	8f\	8f\
8r	8r	8r	8r	8r	[8g\J	[8g\J
4B-\	4BB-\	4B-\	4B-\	4e-\	8g\L]	8g\L]
.	.	.	.	.	8f\	8f\
8r	8r	8r	8r	8r	[8b-\J	[8b-\J
4BB-/	4BBB-/	4BB-/	4F/	4d\	8b-\L]	8b-\L]
.	.	.	.	.	8f\	8f\
8r	8r	8r	8r	8r	[8g\J	[8g\J
4B-\	4BB-\	4B-\	4B-\	4e-\	8g\L]	8g\L]
.	.	.	.	.	8f\	8f\
8BB-/	8BBB-/	8BB-/	8F/	8d\	[8b-\J	[8b-\J
=8	=8	=8	=8	=8	=8	=8
4E-\	4EE-\	4E-\	4G/	4e-\	8b-\L]	8b-\L]
.	.	.	.	.	8g\	8g\
8C/	8CC/	8C/	8c\	8g\	[8ee-\J	[8ee-\J
4F\	4FF\	4F\	4A\	4f\	8ee-\L]	8ee-\L]
.	.	.	.	.	8a\	8a\
8AA/	8AAA/	8AA/	8F/	8cc\	8ff\J	8ff\J
8BB-\L	8BBB-\L	8BB-\L	8f\L	8b-\L	8dd\L	8dd\L
8D\	8DD\	8D\	8d\	8f\	8b-\	8b-\
8F\J	8FF\J	8F\J	8c\J	8f\J	8a\J	8a\J
8B-\L	8BB-\L	8B-\L	4d\	4f\	4b-\	8.b-\
8D\	8DD\	8D\	.	.	.	.
.	.	.	.	.	.	16f\LL
8F\J	8FF\J	8F\J	8r	8r	8r	16g\
.	.	.	.	.	.	16a\JJ
=9	=9	=9	=9	=9	=9	=9
4BB-/	4BBB-/	(8BB-/L	1.r	1.r	8r	(16b-\LL
.	.	.	.	.	.	16a\JJ
.	.	8D/	.	.	16r	8b-\J)
.	.	.	.	.	16f\LL	.
8r	8r	8F/J)	.	.	16g\	8r
.	.	.	.	.	16a\JJ	.
4.r	4.r	(8AA/L	.	.	(16b-\LL	8r
.	.	.	.	.	16a\JJ	.
.	.	8D/	.	.	8b-\J)	16r
.	.	.	.	.	.	16f\LL
.	.	8F/J)	.	.	8r	16g\
.	.	.	.	.	.	16a\JJ
2.r	2.r	(8GG/L	.	.	8r	(16b-\LL
.	.	.	.	.	.	16a\JJ
.	.	8BB-/	.	.	16r	8b-\J)
.	.	.	.	.	16f\LL	.
.	.	8D/J)	.	.	16g\	8r
.	.	.	.	.	16a\JJ	.
.	.	(8FF/L	.	.	(16b-\LL	8r
.	.	.	.	.	16a\JJ	.
.	.	8BB-/	.	.	8b-\J)	16r
.	.	.	.	.	.	16g\LL
.	.	8D/J)	.	.	8r	16a\
.	.	.	.	.	.	16b-\JJ
=10	=10	=10	=10	=10	=10	=10
1.r	1.r	(8EE-/L	1.r	1.r	8r	(16cc\LL
.	.	.	.	.	.	16b-\
.	.	8GG/	.	.	16r	16cc\)
.	.	.	.	.	16g\LL	16b-\
.	.	8C/J)	.	.	16a\	16a\
.	.	.	.	.	16b-\JJ	16g\JJ
.	.	(8AA/L	.	.	(16cc\LL	8f\L
.	.	.	.	.	16b-\	.
.	.	8C/)	.	.	16cc\)	8a\
.	.	.	.	.	16b-\	.
.	.	8FF/J	.	.	16a\	8cc\J
.	.	.	.	.	16g\JJ	.
.	.	(8BB-\L	.	.	(16f\LL	(16dd\LL
.	.	.	.	.	16e-\	16cc\
.	.	8D\	.	.	16f\)	16dd\)
.	.	.	.	.	16g\	16ee-\
.	.	8F\J)	.	.	16f\	16dd\
.	.	.	.	.	16e-\JJ	16cc\JJ
.	.	(8B-\L	.	.	(16d\LL	8b-\L
.	.	.	.	.	16c\	.
.	.	8A\)	.	.	16d\)	8f\
.	.	.	.	.	16e-\	.
.	.	8B-\J	.	.	16f\	[8dd\J
.	.	.	.	.	16d\JJ	.
=11	=11	=11	=11	=11	=11	=11
1.r	1.r	8E'\L	1.r	1.r	(16g\LL	8dd\L]
.	.	.	.	.	16a\	.
.	.	8G'\	.	.	16b-\)	8g\
.	.	.	.	.	16a\	.
.	.	8E'\J	.	.	16g\	[8b-\J
.	.	.	.	.	16f\JJ	.
.	.	8C\L	.	.	(16e\LL	8b-\L]
.	.	.	.	.	16d\	.
.	.	8A\	.	.	16c\)	8e\
.	.	.	.	.	16d\	.
.	.	8C\J	.	.	16e\	[8cc\J
.	.	.	.	.	16c\JJ	.
.	.	8D\L	.	.	(16f\LL	8cc\L]
.	.	.	.	.	16g\	.
.	.	8F\	.	.	16a\)	8f\
.	.	.	.	.	16g\	.
.	.	8D\J	.	.	16f\	[8a\J
.	.	.	.	.	16e\JJ	.
.	.	8BB-\L	.	.	(16d\LL	8a\L]
.	.	.	.	.	16c\	.
.	.	8G\	.	.	16B-\)	8d\
.	.	.	.	.	16c\	.
.	.	8BB-\J	.	.	16d\	[8b-\J
.	.	.	.	.	16B-\JJ	.
=12	=12	=12	=12	=12	=12	=12
1.r	1.r	4C/	1.r	1.r	(16e\LL	8b-\L]
.	.	.	.	.	16f\	.
.	.	.	.	.	16g\)	8e\
.	.	.	.	.	16f\	.
.	.	8BB-/	.	.	16e\	[8g\J
.	.	.	.	.	16d\JJ	.
.	.	4AA/	.	.	(16c\LL	8g\L]
.	.	.	.	.	16d\	.
.	.	.	.	.	16e\)	8c\
.	.	.	.	.	16d\	.
.	.	8GG/	.	.	16c\	8b-\J
.	.	.	.	.	16B-\JJ	.
.	.	4FF/	.	.	(16c\LL	8a\L
.	.	.	.	.	16f\	.
.	.	.	.	.	16e\)	8g\
.	.	.	.	.	16d\	.
.	.	8r	.	.	16c\	8a\J
.	.	.	.	.	16B-\JJ	.
.	.	4.r	.	.	(16A/LL	8f\L
.	.	.	.	.	16B-/	.
.	.	.	.	.	16c/)	8A\J
.	.	.	.	.	16B-/	.
.	.	.	.	.	16A/	8c\
.	.	.	.	.	16G/JJ	.
=13	=13	=13	=13	=13	=13	=13
4F\	4FF\	4F\	4A\	4c\	4F/	(8f\L
.	.	.	.	.	.	8e\)
8r	8r	8r	8r	8r	8f\	8f\J
4E\	4EE\	4E\	4F/	4c\	(8A\L	(8A\L
.	.	.	.	.	8c\)	8c\)
8r	8r	8r	8r	8r	8f\J	8f\J
4D\	4DD\	4D\	4A\	4d\	(8f\L	(8f\L
.	.	.	.	.	8e\)	8e\)
8r	8r	8r	8r	8r	8f\J	8f\J
4C/	4CC/	4C/	4c\	4f\	(8A\L	(8A\L
.	.	.	.	.	8c\)	8c\)
8r	8r	8r	8r	8r	8f\J	8f\J
=14	=14	=14	=14	=14	=14	=14
4BB-/	4BBB-/	4BB-/	4d\	4f\	(8g\L	(8g\L
.	.	.	.	.	8f\)	8f\)
8r	8r	8r	8r	8r	8g\J	8g\J
4C/	4CC/	4C/	4c\	4e\	(8c\L	(8c\L
.	.	.	.	.	8e\)	8e\)
8r	8r	8r	8r	8r	8g\J	8g\J
[4.FF/	[4.FFF/	[4.FF/	(8c\L	(8f\L	(8a\L	(8a\L
.	.	.	8B-\)	8e\)	8g\)	8g\)
.	.	.	8c\J	8f\J	8a\J	8a\J
4FF/]	4FFF/]	8FF/]	4A\	4c\	8.f\	4f\
.	.	8AA/L	.	.	.	.
.	.	.	.	.	16c\LL	.
8r	8r	8C/J	8r	8r	16d\	8r
.	.	.	.	.	16e\JJ	.
=15	=15	=15	=15	=15	=15	=15
1.r	1.r	(8F\L	1.r	1.r	(16f\LL	8r
.	.	.	.	.	16e\JJ	.
.	.	8A\	.	.	8f\J)	16r
.	.	.	.	.	.	16c\LL
.	.	8c\J)	.	.	8r	16d\
.	.	.	.	.	.	16e\JJ
.	.	(8E\L	.	.	8r	(16f\LL
.	.	.	.	.	.	16e\JJ
.	.	8A\	.	.	16r	8f\J)
.	.	.	.	.	16c\LL	.
.	.	8c\J)	.	.	16d\	8r
.	.	.	.	.	16e\JJ	.
.	.	(8D\L	.	.	(16f\LL	8r
.	.	.	.	.	16e\JJ	.
.	.	8F\	.	.	8f\J)	16r
.	.	.	.	.	.	16c\LL
.	.	8A\J)	.	.	8r	16d\
.	.	.	.	.	.	16e\JJ
.	.	(8C\L	.	.	8r	(16f\LL
.	.	.	.	.	.	16e\JJ
.	.	8F\	.	.	16r	8f\J)
.	.	.	.	.	16d\LL	.
.	.	8A\J)	.	.	16e\	8r
.	.	.	.	.	16f\JJ	.
=16	=16	=16	=16	=16	=16	=16
1.r	1.r	(8BB-\L	1.r	1.r	(16g\LL	8r
.	.	.	.	.	16f\	.
.	.	8D\	.	.	16g\)	16r
.	.	.	.	.	16f\	16d\LL
.	.	8G\J)	.	.	16e\	16e\
.	.	.	.	.	16d\JJ	16f\JJ
.	.	(8E\L	.	.	8c\L	(16g\LL
.	.	.	.	.	.	16f\
.	.	8G\)	.	.	8e\	16g\)
.	.	.	.	.	.	16f\
.	.	8C\J	.	.	8g\J	16e\
.	.	.	.	.	.	16d\JJ
.	.	(8FF/L	.	.	(8a\L	(16c/LL
.	.	.	.	.	.	16B-/
.	.	8AA/	.	.	8g\)	16c/)
.	.	.	.	.	.	16d/
.	.	8C/J)	.	.	8a\J	16c/
.	.	.	.	.	.	16B-/JJ
.	.	(8F\L	.	.	8f\L	(16A/LL
.	.	.	.	.	.	16G/
.	.	8E\)	.	.	8c\	16A/)
.	.	.	.	.	.	16B-/
.	.	8F\J	.	.	[8a\J	16c/
.	.	.	.	.	.	16A/JJ
=17	=17	=17	=17	=17	=17	=17
1.r	1.r	8BB/L	1.r	1.r	8a\L]	(16d\LL
.	.	.	.	.	.	16e\
.	.	8D/	.	.	8d\	16f\)
.	.	.	.	.	.	16e\
.	.	8BB/J	.	.	[8f\J	16d\
.	.	.	.	.	.	16c\JJ
.	.	8GG/L	.	.	8f\L]	(16B/LL
.	.	.	.	.	.	16A/
.	.	8E/	.	.	8B\	16G/)
.	.	.	.	.	.	16A/
.	.	8GG/J	.	.	[8g\J	16B/
.	.	.	.	.	.	16G/JJ
.	.	8AA/L	.	.	8g\L]	(16c\LL
.	.	.	.	.	.	16d\
.	.	8C/	.	.	8c\	16e\)
.	.	.	.	.	.	16d\
.	.	8AA/J	.	.	[8e\J	16c\
.	.	.	.	.	.	16B\JJ
.	.	8FF/L	.	.	8e\L]	(16A/LL
.	.	.	.	.	.	16G/
.	.	8D/	.	.	8A\	16F/)
.	.	.	.	.	.	16G/
.	.	8FF/J	.	.	[8f\J	16A/
.	.	.	.	.	.	16F/JJ
=18	=18	=18	=18	=18	=18	=18
1.r	1.r	4GG/	1.r	1.r	8f\L]	(16B/LL
.	.	.	.	.	.	16c/
.	.	.	.	.	8B\	16d/)
.	.	.	.	.	.	16c/
.	.	8FF/	.	.	[8d\J	16B/
.	.	.	.	.	.	16A/JJ
.	.	4EE/	.	.	8d\L]	(16G/LL
.	.	.	.	.	.	16A/
.	.	.	.	.	8G\	16B/)
.	.	.	.	.	.	16A/
.	.	8DD/	.	.	8f\J	16G/
.	.	.	.	.	.	16F/JJ
.	.	4CC/	.	.	(8e\L	(16G/LL
.	.	.	.	.	.	16c/
.	.	.	.	.	8d\)	16B/)
.	.	.	.	.	.	16A/
.	.	8r	.	.	8e\J	16G/
.	.	.	.	.	.	16F/JJ
.	.	4.r	.	.	8c\L	(16E/LL
.	.	.	.	.	.	16F/
.	.	.	.	.	8e\	16G/)
.	.	.	.	.	.	16F/
.	.	.	.	.	8g\J	16E/
.	.	.	.	.	.	16D/JJ
=19	=19	=19	=19	=19	=19	=19
4AA/	4AAA/	4AA/	4c\	4f\	8cc\L	8C/L
.	.	.	.	.	8f\	8c/
8r	8r	8r	8r	8r	[8a\J	[8a/J
4D\	4DD\	4D\	4c\	4f\	8a\L]	8a\L]
.	.	.	.	.	8d\	8d\
8r	8r	8r	8r	8r	[8b-\J	[8b-\J
4GG/	4GGG/	4GG/	4B-\	4f\	8b-\L]	8b-\L]
.	.	.	.	.	8e\	8e\
8r	8r	8r	8r	8r	[8g\J	[8g\J
4C/	4CC/	4C/	4c\	4e\	8g\L]	8g\L]
.	.	.	.	.	8c\	8c\
8r	8r	8r	8r	8r	[8a\J	[8a\J
=20	=20	=20	=20	=20	=20	=20
4FF/	4FFF/	4FF/	4c\	4f\	16a\LL]	8a\L]
.	.	.	.	.	16f\	.
.	.	.	.	.	16e\	8c\
.	.	.	.	.	16d\	.
8r	8r	8F\	8r	8r	16c\	[8f\J
.	.	.	.	.	16B-\JJ	.
4.r	4.r	4FF/	4.r	4.r	16A/LL	8f\L]
.	.	.	.	.	16d/	.
.	.	.	.	.	16c/	8A\
.	.	.	.	.	16B-/	.
.	.	8F\	.	.	16A/	[8c\J
.	.	.	.	.	16G/JJ	.
2.r	2.r	4FF/	2.r	2.r	16F/LL	8c/L]
.	.	.	.	.	16C/	.
.	.	.	.	.	16D/	8F/
.	.	.	.	.	16E/	.
.	.	8F\	.	.	16F/	8A/J
.	.	.	.	.	16G/JJ	.
.	.	4FF/	.	.	(16A/LL	8c/L
.	.	.	.	.	16G/	.
.	.	.	.	.	16F/)	8A/
.	.	.	.	.	16G/	.
.	.	8F\	.	.	16A/	8c/J
.	.	.	.	.	16B-/JJ	.
=21	=21	=21	=21	=21	=21	=21
4FF/	4FFF/	4FF/	4F/	4A\	8c/L	8f\L
.	.	.	.	.	8F/	8c\
8r	8r	8r	8r	8r	[8d/J	[8d\J
4F\	4FF\	4F\	4F/	4B-\	8d\L]	8d/L]
.	.	.	.	.	8c\	(16c/LL
.	.	.	.	.	.	16B-/)
8r	8r	8r	8r	8r	[8f\J	16A/
.	.	.	.	.	.	16G/JJ
4.r	4.r	4FF/	4.r	4.r	8f\L]	(16A/LL
.	.	.	.	.	.	16B-/
.	.	.	.	.	8c\	16c/)
.	.	.	.	.	.	16B-/
.	.	8r	.	.	[8d\J	16A/
.	.	.	.	.	.	16G/JJ
8r	8r	4F\	8r	8r	8d\L]	(16F/LL
.	.	.	.	.	.	16G/
8r	8r	.	8r	8r	8c\	16A/)
.	.	.	.	.	.	16G/
8FF/	8FFF/	8FF/	8A\	8c\	[8f\J	16F/
.	.	.	.	.	.	16E/JJ
=22	=22	=22	=22	=22	=22	=22
4BB-/	4BBB-/	4BB-/	4B-\	4d\	8f\L]	8D\L
.	.	.	.	.	8d\	8d\
8GG/	8GGG/	8GG/	8d\	8g\	[8b-\J	[8b-\J
4C/	4CC/	4C/	4e\	4G/	8b-\L]	8b-\L]
.	.	.	.	.	8e\	8e\
8E\	8EE\	8E\	8c\	8g\	8cc\J	8cc\J
8F/L	8FF/L	8F\L	8c\L	8f\L	8a\L	8a\L
8AA/	8AAA/	8A\	8A\	8c\	8f\	8f\
8C/J	8CC/J	8c\J	8G\J	8c\J	8et\J	8et\J
4FF/	4FFF/	(16F\LL	4A\	4c\	4f\	4f\
.	.	16G\	.	.	.	.
.	.	16A\)	.	.	.	.
.	.	16G\	.	.	.	.
8r	8r	16F\	8r	8r	8c\	8r
.	.	16E-\JJ	.	.	.	.
=23	=23	=23	=23	=23	=23	=23
2.r	2.r	(16D\LL	2.r	2.r	[4.f\	8r
.	.	16E-\	.	.	.	.
.	.	16F\)	.	.	.	8r
.	.	16E-\	.	.	.	.
.	.	16D\	.	.	.	8a\
.	.	16C\JJ	.	.	.	.
.	.	(16BB\LL	.	.	8f\L]	[4.dd\
.	.	16D\	.	.	.	.
.	.	16G\)	.	.	8B\	.
.	.	16F\	.	.	.	.
.	.	16E-\	.	.	8d\J	.
.	.	16D\JJ	.	.	.	.
8r	8r	8C\L	8r	8r	(16e-\LL	8dd\L]
.	.	.	.	.	16f\	.
8r	8r	8E-\	8r	8r	16g\)	8g\
.	.	.	.	.	16f\	.
8GG/	8GGG/	8G\J	8G/	8g\	16e-\	8b\J
.	.	.	.	.	16d\JJ	.
4C/	4CC/	8c\L	4G/	4e-\	(16e-\LL	8cc\L
.	.	.	.	.	16d\	.
.	.	8E-\	.	.	16c\)	8c\J
.	.	.	.	.	16e-\	.
8r	8r	8G\J	8r	8r	16d\	8r
.	.	.	.	.	16f\JJ	.
=24	=24	=24	=24	=24	=24	=24
2.r	2.r	(16C/LL	2.r	2.r	[4.e-\	8r
.	.	16D/	.	.	.	.
.	.	16E-/)	.	.	.	8r
.	.	16D/	.	.	.	.
.	.	16C/	.	.	.	8g\
.	.	16BB-/JJ	.	.	.	.
.	.	(16AA/LL	.	.	8e-\L]	[4.cc\
.	.	16C/	.	.	.	.
.	.	16F/)	.	.	8A\	.
.	.	16E-/	.	.	.	.
.	.	16D/	.	.	8c\J	.
.	.	16C/JJ	.	.	.	.
8r	8r	8BB-\L	8r	8r	(16d\LL	8cc\L]
.	.	.	.	.	16e-\	.
8r	8r	8D\	8r	8r	16f\)	8f\
.	.	.	.	.	16e-\	.
8FF/	8FFF/	8F\J	8F/	8f\	16d\	8a\J
.	.	.	.	.	16c\JJ	.
4BB-/	4BBB-/	(16B-\LL	4F/	4d\	8d\L	8b-\L
.	.	16c\	.	.	.	.
.	.	16B-\)	.	.	8B-\	8B-\J
.	.	16A\	.	.	.	.
8r	8r	16G\	8r	8r	8d\J	8r
.	.	16F\JJ	.	.	.	.
=25	=25	=25	=25	=25	=25	=25
4.r	4.r	(16E-\LL	4.r	4.r	[4.g\	8r
.	.	16F\	.	.	.	.
.	.	16G\)	.	.	.	8r
.	.	16F\	.	.	.	.
.	.	16E-\	.	.	.	8b-\
.	.	16D\JJ	.	.	.	.
8r	8r	(16C\LL	8r	8r	8g\L]	[4.ee-\
.	.	16E-\	.	.	.	.
8r	8r	16A\)	8r	8r	8c\	.
.	.	16G\	.	.	.	.
8C/	8CC/	16F\	8A\	8c\	8e-\J	.
.	.	16E-\JJ	.	.	.	.
4.D/	4.DD/	(16D\LL	4.F/	4.c\	[4.f\	8ee-\L]
.	.	16E-\	.	.	.	.
.	.	16F\)	.	.	.	8a\
.	.	16E-\	.	.	.	.
.	.	16D\	.	.	.	8cc\J
.	.	16C\JJ	.	.	.	.
8r	8r	(16BB-\LL	8r	8r	8f\L]	[4.dd\
.	.	16D\	.	.	.	.
8r	8r	16G\)	8r	8r	8B-\	.
.	.	16F\	.	.	.	.
8BB-/	8BBB-/	16E-\	8G/	8B-\	8d\J	.
.	.	16D\JJ	.	.	.	.
=26	=26	=26	=26	=26	=26	=26
4.C/	4.CC/	(16C/LL	4.E-/	4.B-\	[4.e-\	8dd\L]
.	.	16D/	.	.	.	.
.	.	16E-/)	.	.	.	8g\
.	.	16D/	.	.	.	.
.	.	16C/	.	.	.	8b-\J
.	.	16BB-/JJ	.	.	.	.
8r	8r	(16AA/LL	8r	8r	8e-\L]	[4.cc\
.	.	16C/	.	.	.	.
8r	8r	16F/)	8r	8r	8A\	.
.	.	16E-/	.	.	.	.
8FF/	8FFF/	16D/	8F/	8A\	8c\J	.
.	.	16C/JJ	.	.	.	.
4.BB-/	4.BBB-/	(16BB-/LL	4.F/	4.B-\	16d\LL	8cc\L]
.	.	16AA/	.	.	16c\	.
.	.	16BB-/)	.	.	16d\	8f\
.	.	16C/	.	.	16e-\	.
.	.	16D/	.	.	16f\	[8b-\J
.	.	16E-/JJ	.	.	16g\JJ	.
4.r	4.r	(16F/LL	4.r	4.r	8c/L	8b-\L]
.	.	16E/	.	.	.	.
.	.	16F/)	.	.	8F/J	8a\
.	.	16C/	.	.	.	.
.	.	16AA/	.	.	[8ff\	[8ff\J
.	.	16C/JJ	.	.	.	.
=27	=27	=27	=27	=27	=27	=27
4FF/	4FFF/	4FF/	4f\	4a\	8ff\L]	8ff\L]
.	.	.	.	.	8cc\	8cc\
8r	8r	8r	8r	8r	[8dd\J	[8dd\J
4F\	4FF\	4F\	4f\	4b-\	8dd\L]	8dd\L]
.	.	.	.	.	8cc\	8cc\
8r	8r	8r	8r	8r	[8ff\J	[8ff\J
4FF/	4FFF/	4FF/	4c\	4a\	8ff\L]	8ff\L]
.	.	.	.	.	8cc\	8cc\
8r	8r	8r	8r	8r	[8dd\J	[8dd\J
4F\	4FF\	16F\LL	4B-\	4f\	8dd\L]	8dd\L]
.	.	16C\	.	.	.	.
.	.	16D\	.	.	8cc\	8cc\
.	.	16E-\	.	.	.	.
8r	8r	16F\	8A\	8f\	8f\J	[8ee-\J
.	.	16G\JJ	.	.	.	.
=28	=28	=28	=28	=28	=28	=28
2.r	2.r	(16A\LL	4F/	4F/	(16cc\LL	8ee-\L]
.	.	16B-\	.	.	16dd\	.
.	.	16c\)	.	.	16ee-\)	8a\
.	.	16B-\	.	.	16dd\	.
.	.	16A\	8f\	8f\	16cc\	[8cc\J
.	.	16G\JJ	.	.	16b-\JJ	.
.	.	(16F\LL	4F/	4F/	(16a\LL	8cc\L]
.	.	16G\	.	.	16b-\	.
.	.	16A\)	.	.	16cc\)	8f\
.	.	16G\	.	.	16b-\	.
.	.	16F\	8f\	8f\	16a\	[8a\J
.	.	16E-\JJ	.	.	16g\JJ	.
8r	8r	(16D\LL	4F/	4F/	(16f\LL	8a\L]
.	.	16E-\	.	.	16g\	.
8r	8r	16F\)	.	.	16a\)	8cc\
.	.	16E-\	.	.	16b-\	.
8FF/	8FFF/	16D\	8f\	8a\	16cc\	[8ee-\J
.	.	16C\JJ	.	.	16a\JJ	.
4BB-/	4BBB-/	16BB-\LL	4F/	4f\	8b-\L	8ee-\L]
.	.	16F\	.	.	.	.
.	.	16G\	.	.	8B-\	8dd\
.	.	16A\	.	.	.	.
8r	8r	16B-\	8d\	8f\	[8a-\J	8B-\J
.	.	16c\JJ	.	.	.	.
=29	=29	=29	=29	=29	=29	=29
2.r	2.r	(16d\LL	4B-\	4B-\	8a-\L]	(16f\LL
.	.	16e-\	.	.	.	16g\
.	.	16f\)	.	.	8d\	16a-\)
.	.	16e-\	.	.	.	16g\
.	.	16d\	8b-\	8b-\	[8f\J	16f\
.	.	16c\JJ	.	.	.	16e-\JJ
.	.	(16B-\LL	4B-\	4B-\	8f\L]	(16d\LL
.	.	16c\	.	.	.	16e-\
.	.	16d\)	.	.	8B-\	16f\)
.	.	16c\	.	.	.	16e-\
.	.	16B-\	8b-\	8b-\	[8d\J	16d\
.	.	16A-\JJ	.	.	.	16c\JJ
8r	8r	(16G\LL	4B-\	4B-\	8d\L]	(16B-\LL
.	.	16A-\	.	.	.	16c\
8r	8r	16B-\)	.	.	8f\	16d\)
.	.	16A-\	.	.	.	16e-\
8BB-/	8BBB-/	16G\	8d\	8b-\	[8a-\J	16f\
.	.	16F\JJ	.	.	.	16d\JJ
4E-\	4EE-\	(16E-\LL	4B-\	4B-\	8a-\L]	8e-/L
.	.	16F\	.	.	.	.
.	.	16G\)	.	.	8g\J	8E-/
.	.	16F\	.	.	.	.
8r	8r	16E-\	8r	8r	8r	[8g/J
.	.	16D\JJ	.	.	.	.
=30	=30	=30	=30	=30	=30	=30
4E\	4EE\	(16C\LL	4G/	4c\	4.r	8g\L]
.	.	16D\	.	.	.	.
.	.	16E\)	.	.	.	8c\
.	.	16D\	.	.	.	.
8r	8r	16E\	8r	8r	.	[8b-\J
.	.	16C\JJ	.	.	.	.
4F\	4FF\	(16F\LL	4F/	4c\	8r	8b-\L]
.	.	16G\	.	.	.	.
.	.	16A\)	.	.	8r	8a\J
.	.	16G\	.	.	.	.
8r	8r	16F\	8r	8r	[8a\	8r
.	.	16E-\JJ	.	.	.	.
4F#\	4FF#\	(16D\LL	4A\	4d\	8a\L]	4.r
.	.	16E\	.	.	.	.
.	.	16F#\)	.	.	8d\	.
.	.	16E\	.	.	.	.
8r	8r	16F#\	8r	8r	[8cc\J	.
.	.	16D\JJ	.	.	.	.
4G\	4GG\	(16G\LL	4G/	4d\	8cc\L]	8r
.	.	16F#\	.	.	.	.
.	.	16G\)	.	.	8b-\J	8r
.	.	16A\	.	.	.	.
8r	8r	16B-\	8r	8r	8r	[8dd\
.	.	16G\JJ	.	.	.	.
=31	=31	=31	=31	=31	=31	=31
4A\	4AA\	(16A\LL	4c\	4f\	4e-\	8dd\L]
.	.	16G\	.	.	.	.
.	.	16A\)	.	.	.	8cc\
.	.	16B-\	.	.	.	.
8r	8r	16c\	8r	8r	8c\	[8ee-\J
.	.	16A\JJ	.	.	.	.
4B-\	4BB-\	(16B-\LL	4B-\	4B-\	4f\	8ee-\L]
.	.	16A\	.	.	.	.
.	.	16B-\)	.	.	.	8dd\
.	.	16c\	.	.	.	.
8r	8r	16d\	8r	8r	8d\	[8ff\J
.	.	16B-\JJ	.	.	.	.
4E-\	4EE-\	(16E-\LL	4G/	4B-\	8.g\L	8ff\L]
.	.	16D\	.	.	.	.
.	.	16E-\)	.	.	.	(16ee-\LL
.	.	16F\	.	.	16f\LL	16dd\)
8r	8r	16G\	8r	8r	16e-\	16cc\
.	.	16E-\JJ	.	.	16d\JJ	16b-\JJ
4F\	4FF\	8F\	4c\	4f\	(16c/LL	(16a\LL
.	.	.	.	.	16B-/	16g\
.	.	8FF/L	.	.	16A/)	16f\)
.	.	.	.	.	16G/	16e-\
8r	8r	8F/J	8r	8r	16F/	16d\
.	.	.	.	.	16E-/JJ	16c\JJ
=32	=32	=32	=32	=32	=32	=32
1.r	1.r	(8BB-/L	1.r	1.r	8D/	(16B-/LL
.	.	.	.	.	.	16A/JJ
.	.	8D/	.	.	16r	8B-/J)
.	.	.	.	.	16F/LL	.
.	.	8F/J)	.	.	16G/	8r
.	.	.	.	.	16A/JJ	.
.	.	(8AA/L	.	.	(16B-/LL	8r
.	.	.	.	.	16A/JJ	.
.	.	8D/	.	.	8B-/J)	16r
.	.	.	.	.	.	16F/LL
.	.	8F/J)	.	.	8r	16G/
.	.	.	.	.	.	16A/JJ
.	.	(8GG/L	.	.	8r	(16B-/LL
.	.	.	.	.	.	16A/JJ
.	.	8BB-/	.	.	16r	8B-/J)
.	.	.	.	.	16F/LL	.
.	.	8D/J)	.	.	16G/	8r
.	.	.	.	.	16A/JJ	.
.	.	(8FF/L	.	.	(16B-/LL	8r
.	.	.	.	.	16A/JJ	.
.	.	8BB-/	.	.	8B-/J)	16r
.	.	.	.	.	.	16G/LL
.	.	8D/J)	.	.	8r	16A/
.	.	.	.	.	.	16B-/JJ
=33	=33	=33	=33	=33	=33	=33
1.r	1.r	(8EE-/L	1.r	1.r	8r	(16c/LL
.	.	.	.	.	.	16B-/
.	.	8GG/	.	.	16r	16c/)
.	.	.	.	.	16G/LL	16B-/
.	.	8C/J)	.	.	16A/	16A/
.	.	.	.	.	16B-/JJ	16G/JJ
.	.	(8AA/L	.	.	(16c/LL	8F/L
.	.	.	.	.	16B-/	.
.	.	8C/)	.	.	16c/)	8A/
.	.	.	.	.	16B-/	.
.	.	8FF/J	.	.	16A/	8c/J
.	.	.	.	.	16G/JJ	.
.	.	(8BB-\L	.	.	(16F/LL	(16d\LL
.	.	.	.	.	16E-/	16c\
.	.	8D\	.	.	16F/)	16d\)
.	.	.	.	.	16G/	16e-\
.	.	8F\J)	.	.	16F/	16d\
.	.	.	.	.	16E-/JJ	16c\JJ
.	.	(8B-\L	.	.	4D/	16B-\LL
.	.	.	.	.	.	16d\
.	.	8A\)	.	.	.	16f\
.	.	.	.	.	.	16b-\
.	.	8B-\J	.	.	[8ff\	16dd\
.	.	.	.	.	.	16ee-\JJ
=34	=34	=34	=34	=34	=34	=34
4D\	4DD\	4D\	4f\	4b-\	8ff\L]	8ff\L
.	.	.	.	.	8b-\	8b-\
8r	8r	8r	8r	8r	[8dd\J	[8dd\J
4G\	4GG\	4G\	4f\	4b-\	8dd\L]	8dd\L]
.	.	.	.	.	8g\	8g\
8r	8r	8r	8r	8r	[8ee-\J	[8ee-\J
4C/	4CC/	4C/	4e-\	4b-\	8ee-\L]	8ee-\L]
.	.	.	.	.	8a\	8a\
8r	8r	8r	8r	8r	[8cc\J	[8cc\J
4F\	4FF\	4F\	4f\	4a\	8cc\L]	8cc\L]
.	.	.	.	.	8f\	8f\
8r	8r	8r	8r	8r	[8dd\J	[8dd\J
=35	=35	=35	=35	=35	=35	=35
4BB-/	4BBB-/	4BB-/	4f\	4b-\	8dd\L]	16dd\LL]
.	.	.	.	.	.	16b-\
.	.	.	.	.	8f\	16a\
.	.	.	.	.	.	16g\
8r	8r	8B-\	8r	8r	[8b-\J	16f\
.	.	.	.	.	.	16e-\JJ
4.r	4.r	4BB-/	4.r	4.r	8b-\L]	16d\LL
.	.	.	.	.	.	16g\
.	.	.	.	.	8d\	16f\
.	.	.	.	.	.	16e-\
.	.	8B-\	.	.	[8f\J	16d\
.	.	.	.	.	.	16c\JJ
2.r	2.r	4BB-/	2.r	2.r	8f\L]	16B-/LL
.	.	.	.	.	.	16F/
.	.	.	.	.	8B-\	16G/
.	.	.	.	.	.	16A/
.	.	8B-\	.	.	8d\J	16B-/
.	.	.	.	.	.	16c/JJ
.	.	4BB-/	.	.	8f\L	16d\LL
.	.	.	.	.	.	16c\
.	.	.	.	.	8d\	16B-\
.	.	.	.	.	.	16c\
.	.	8B-\	.	.	8f\J	16d\
.	.	.	.	.	.	16e-\JJ
=36	=36	=36	=36	=36	=36	=36
4BB-/	4BBB-/	4BB-/	4B-\	4d\	8b-\L	8f\L
.	.	.	.	.	8f\	8B-\
8r	8r	8r	8r	8r	[8g\J	[8g\J
4B-\	4BB-\	4B-\	4B-\	4e-\	8g\L]	8g\L]
.	.	.	.	.	(16f\LL	8f\
.	.	.	.	.	16e-\)	.
8r	8r	8r	8r	8r	16d\	[8b-\J
.	.	.	.	.	16c\JJ	.
4BB-/	4BBB-/	4BB-/	4B-\	4f\	(16d\LL	8b-\L]
.	.	.	.	.	16e-\	.
.	.	.	.	.	16f\)	8f\
.	.	.	.	.	16e-\	.
8r	8r	8r	8r	8r	16d\	[8g\J
.	.	.	.	.	16c\JJ	.
4B-\	4BB-\	4B-\	4.r	4.r	(16B-/LL	8g\L]
.	.	.	.	.	16c/	.
.	.	.	.	.	16d/)	8f\
.	.	.	.	.	16c/	.
8r	8r	8BB-/	.	.	16B-/	[8b-\J
.	.	.	.	.	16A/JJ	.
=37	=37	=37	=37	=37	=37	=37
1.r	1.r	4E-\	1.r	1.r	(16G/LL	8b-\L]
.	.	.	.	.	16A/	.
.	.	.	.	.	16B-/)	8g\
.	.	.	.	.	16d/	.
.	.	8C/	.	.	16c/	[8ee-\J
.	.	.	.	.	16B-/JJ	.
.	.	4F\	.	.	(16A/LL	8ee-\L]
.	.	.	.	.	16B-/	.
.	.	.	.	.	16c/)	8a\
.	.	.	.	.	16e-/	.
.	.	8A\	.	.	16d/	8ff\J
.	.	.	.	.	16c/JJ	.
.	.	8B-\L	.	.	(16B-\LL	8dd\L
.	.	.	.	.	16A\	.
.	.	8D\	.	.	16B-\)	8b-\
.	.	.	.	.	16d\	.
.	.	8F\J	.	.	16c\	8a\J
.	.	.	.	.	16e-\JJ	.
.	.	4BB-/	.	.	16d\LL	16b-\LL
.	.	.	.	.	16f\	16f\
.	.	.	.	.	16d\	16d\
.	.	.	.	.	16B-\	16B-\
.	.	8r	.	.	16d\	16d\
.	.	.	.	.	16f\JJ	16f\JJ
=38	=38	=38	=38	=38	=38	=38
4B-\	4BB-\	4B-\	4d\	4f\	(8b-\L	(8b-\L
.	.	.	.	.	8a\)	8a\)
8r	8r	8r	8r	8r	8b-\J	8b-\J
4A\	4AA\	4A\	4B-\	4f\	(8d\L	(8d\L
.	.	.	.	.	8f\)	8f\)
8r	8r	8r	8r	8r	8b-\J	8b-\J
4G\	4GG\	4G\	4d\	4g\	(8b-\L	(8b-\L
.	.	.	.	.	8a\)	8a\)
8r	8r	8r	8r	8r	8b-\J	8b-\J
4F\	4FF\	4F\	4f\	4b-\	(8d\L	(8d\L
.	.	.	.	.	8f\)	8f\)
8r	8r	8r	8r	8r	8b-\J	8b-\J
=39	=39	=39	=39	=39	=39	=39
4E-\	4EE-\	4E-\	4g\	4b-\	(8cc\L	(8cc\L
.	.	.	.	.	8b-\)	8b-\)
8r	8r	8r	8r	8r	8cc\J	8cc\J
4F\	4FF\	4F\	4f\	4a\	(8f\L	(8f\L
.	.	.	.	.	8a\)	8a\)
8r	8r	8r	8r	8r	8cc\J	8cc\J
4BB-/	4BBB-/	4BB-/	(8f\L	(8b-\L	(8dd\L	(8dd\L
.	.	.	8e-\)	8a\)	8cc\)	8cc\)
8F\	8FF\	8F\	8f\J	8b-\J	8dd\J	8dd\J
(8B-\L	(8BB-\L	(8B-\L	(8d\L	4f\	4b-\	4b-\
8A\)	8AA\)	8A\)	8c\)	.	.	.
8B-\J	8BB-\J	8B-\J	8d\J	8f\	[8dd\	[8dd\
=40	=40	=40	=40	=40	=40	=40
4E\	4EE\	4E\	4G/	4g\	8dd\L]	8dd\L]
.	.	.	.	.	8g\	8g\
8r	8r	8r	8r	8r	[8b-\J	[8b-\J
4C/	4CC/	4C/	4e\	4g\	8b-\L]	8b-\L]
.	.	.	.	.	8e\	8e\
8r	8r	8r	8r	8r	[8cc\J	[8cc\J
4D\	4DD\	4D\	4A\	4f\	8cc\L]	8cc\L]
.	.	.	.	.	8f\	8f\
8r	8r	8r	8r	8r	[8a\J	[8a\J
4BB-/	4BBB-/	4BB-/	4d\	4f\	8a\L]	8a\L]
.	.	.	.	.	8d\	8d\
8r	8r	8r	8r	8r	[8b-\J	[8b-\J
=41	=41	=41	=41	=41	=41	=41
4C/	4CC/	4C/	4G/	4e\	8b-\L]	8b-\L]
.	.	.	.	.	8e\	8e\
8BB-/	8BBB-/	8BB-/	8E/	8c\	[8g\J	[8g\J
4AA/	4AAA/	4AA/	4A\	4c\	8g\L]	8g\L]
.	.	.	.	.	8c\	8c\
8GG/	8GGG/	8GG/	8B-\	8e\	8b-\J	8b-\J
4FF/	4FFF/	4FF/	(8c\L	(8f\L	(8a\L	(8a\L
.	.	.	8B-\)	8e\)	8g\)	8g\)
8C/	8CC/	8C/	8c\J	8f\J	8a\J	8a\J
(8F\L	(8FF\L	(8F\L	(8A/L	4c\	(8f\L	(8f\L
8E-\)	8EE-\)	8E-\)	8G/)	.	8a\)	8a\)
8F\J	8FF\J	8F\J	8A/J	8f\	8cc\J	8cc\J
=42	=42	=42	=42	=42	=42	=42
4D\	4DD\	4D\	4B-\	4f\	8ff\L	8ff\L
.	.	.	.	.	8b-\	8b-\
8r	8r	8r	8r	8r	[8dd\J	[8dd\J
4G\	4GG\	4G\	4B-\	4f\	8dd\L]	8dd\L]
.	.	.	.	.	8g\	8g\
8r	8r	8r	8r	8r	[8ee-\J	[8ee-\J
4C/	4CC/	4C/	4B-\	4e-\	8ee-\L]	8ee-\L]
.	.	.	.	.	8a\	8a\
8r	8r	8r	8r	8r	[8cc\J	[8cc\J
4F\	4FF\	4F\	4A\	4f\	8cc\L]	8cc\L]
.	.	.	.	.	8f\	8f\
8r	8r	8r	8r	8r	[8dd\J	[8dd\J
=43	=43	=43	=43	=43	=43	=43
4BB-/	4BBB-/	4BB-/	4B-\	8f\L	8dd\L]	8dd\L]
.	.	.	.	8d\	8f\	8f\
8B-\	8BB-\	8B-\	8d\	8f\J	[8b-\J	[8b-\J
4BB-/	4BBB-/	4BB-/	4F/	8d\L	8b-\L]	8b-\L]
.	.	.	.	8B-\	8d\	8d\
8B-\	8BB-\	8B-\	8B-\	8d\J	[8f\J	[8f\J
4BB-/	4BBB-/	4BB-/	8D/L	8B-\L	8f\L]	8f\L]
.	.	.	8F/	8d\	8B-\	8B-\
8B-\	8BB-\	8B-\	8B-/J	8f\J	8d\J	8d\J
4BB-/	4BBB-/	4BB-/	8d\L	8b-\L	8f\L	8f\L
.	.	.	8B-\	8f\	8d\	8d\
8B-\	8BB-\	8B-\	8d\J	8b-\J	8f\J	8f\J
=44	=44	=44	=44	=44	=44	=44
4BB-/	4BBB-/	4BB-/	4f\	4d\	8b-\L	8b-\L
.	.	.	.	.	8f\	8f\
8r	8r	8r	8r	8r	[8g\J	[8g\J
4B-\	4BB-\	4B-\	4B-\	4e-\	8g\L]	8g\L]
.	.	.	.	.	8f\	8f\
8r	8r	8r	8r	8r	[8b-\J	[8b-\J
4BB-/	4BBB-/	4BB-/	4F/	4d\	8b-\L]	8b-\L]
.	.	.	.	.	8f\	8f\
8r	8r	8r	8r	8r	[8g\J	[8g\J
4B-\	4BB-\	4B-\	4B-\	4e-\	8g\L]	8g\L]
.	.	.	.	.	8f\	8f\
8BB-/	8BBB-/	8BB-/	8F/	8d\	[8b-\J	[8b-\J
=45	=45	=45	=45	=45	=45	=45
4E-\	4EE-\	4E-\	4G/	4e-\	8b-\L]	8b-\L]
.	.	.	.	.	8g\	8g\
8C/	8CC/	8C/	8c\	8g\	[8ee-\J	[8ee-\J
4F\	4FF\	4F\	4A\	4f\	8ee-\L]	8ee-\L]
.	.	.	.	.	8a\	8a\
8AA/	8AAA/	8A\	8F/	8cc\	8ff\J	8ff\J
8BB-/L	8BBB-/L	8B-\L	8f\L	8b-\L	8dd\L	8dd\L
8DD/	8DDD/	8D\	8d\	8f\	8b-\	8b-\
8FF/J	8FFF/J	8F\J	8c\J	8f\J	8at\J	8at\J
4BBB-/	4BBBB-/	4BB-/	4d\	4f\	4b-\	8.b-\
.	.	.	.	.	.	16dd\LL
8r	8r	8r	8r	8r	8r	16cc\
.	.	.	.	.	.	16dd\JJ
=46	=46	=46	=46	=46	=46	=46
4DD/	4DDD/	4D\	1.r	1.r	4.r	16b-\LL
.	.	.	.	.	.	16dd\
.	.	.	.	.	.	16a\
.	.	.	.	.	.	16dd\
8D\	8DD\	8d\	.	.	.	16g\
.	.	.	.	.	.	16dd\JJ
4DD/	4DDD/	4D\	.	.	8r	16f#\LL
.	.	.	.	.	.	16dd\
.	.	.	.	.	16r	16e\
.	.	.	.	.	16d\LL	16dd\
8D\	8DD\	8d\	.	.	16cc\	16f#\
.	.	.	.	.	16d\JJ	16dd\JJ
4DD/	4DDD/	4D\	.	.	16b-\LL	16g\LL
.	.	.	.	.	16d\	16dd\
.	.	.	.	.	16a\	16f#\
.	.	.	.	.	16d\	16dd\
8D\	8DD\	8d\	.	.	16g\	16g\
.	.	.	.	.	16d\JJ	16dd\JJ
4DD/	4DDD/	4D\	.	.	16f#\LL	16a\LL
.	.	.	.	.	16d\	16dd\
.	.	.	.	.	16e\	16g\
.	.	.	.	.	16d\	16dd\
8D\	8DD\	8d\	.	.	16f#\	16a\
.	.	.	.	.	16d\JJ	16dd\JJ
=47	=47	=47	=47	=47	=47	=47
4DD/	4DDD/	4D\	1.r	1.r	16g\LL	16b-\LL
.	.	.	.	.	16d\	16dd\
.	.	.	.	.	16f#\	16a\
.	.	.	.	.	16d\	16dd\
8D\	8DD\	8d\	.	.	16g\	16b-\
.	.	.	.	.	16d\JJ	16dd\JJ
4DD/	4DDD/	4D\	.	.	16a\LL	16cc\LL
.	.	.	.	.	16d\	16dd\
.	.	.	.	.	16g\	16b-\
.	.	.	.	.	16d\	16dd\
8D\	8DD\	8d\	.	.	16f#\	16a\
.	.	.	.	.	16d\JJ	16dd\JJ
4DD/	4DDD/	4D\	.	.	16g\LL	16b-\LL
.	.	.	.	.	16d\	16dd\
.	.	.	.	.	16a\	16a\
.	.	.	.	.	16d\	16dd\
8D\	8DD\	8d\	.	.	16b-\	16g\
.	.	.	.	.	16d\JJ	16dd\JJ
4DD/	4DDD/	4D\	.	.	8a\L	16f#\LL
.	.	.	.	.	.	16d\
.	.	.	.	.	8d\J	16f#\
.	.	.	.	.	.	16a\
8r	8r	8C/	.	.	8r	16dd\
.	.	.	.	.	.	16ee-\JJ
=48	=48	=48	=48	=48	=48	=48
1.r	1.r	4BB/	1.r	1.r	16r	4.ff\
.	.	.	.	.	16G\LL	.
.	.	.	.	.	16B\	.
.	.	.	.	.	16d\	.
.	.	8r	.	.	16g\	.
.	.	.	.	.	16b\JJ	.
.	.	4C/	.	.	4.ee-\	16r
.	.	.	.	.	.	16c\LL
.	.	.	.	.	.	16e-\
.	.	.	.	.	.	16g\
.	.	8r	.	.	.	16cc\
.	.	.	.	.	.	16dd\JJ
.	.	4AA/	.	.	16r	4.ee-\
.	.	.	.	.	16F\LL	.
.	.	.	.	.	16A\	.
.	.	.	.	.	16c\	.
.	.	8r	.	.	16f\	.
.	.	.	.	.	16a\JJ	.
.	.	4BB-/	.	.	4.dd\	16r
.	.	.	.	.	.	16B-\LL
.	.	.	.	.	.	16d\
.	.	.	.	.	.	16f\
.	.	8r	.	.	.	16b-\
.	.	.	.	.	.	16cc\JJ
=49	=49	=49	=49	=49	=49	=49
1.r	1.r	4GG/	1.r	1.r	16r	4.dd\
.	.	.	.	.	16E-/LL	.
.	.	.	.	.	16G/	.
.	.	.	.	.	16B-/	.
.	.	8r	.	.	16e-/	.
.	.	.	.	.	16g/JJ	.
.	.	4AA/	.	.	4.cc\	16r
.	.	.	.	.	.	16A\LL
.	.	.	.	.	.	16c\
.	.	.	.	.	.	16f#\
.	.	8r	.	.	.	16a\
.	.	.	.	.	.	16b-\JJ
.	.	4FF#/	.	.	16r	4.cc\
.	.	.	.	.	16D/LL	.
.	.	.	.	.	16F#/	.
.	.	.	.	.	16A/	.
.	.	8r	.	.	16d/	.
.	.	.	.	.	16f#/JJ	.
.	.	4GG/	.	.	[4.b-\	16r
.	.	.	.	.	.	16G/LL
.	.	.	.	.	.	16A/
.	.	.	.	.	.	16B-/
.	.	8r	.	.	.	16c/
.	.	.	.	.	.	16d/JJ
=50	=50	=50	=50	=50	=50	=50
1.r	1.r	4C/	1.r	1.r	16b-\LL]	[4.e-\
.	.	.	.	.	16a\	.
.	.	.	.	.	16g\	.
.	.	.	.	.	16f\	.
.	.	8r	.	.	16e-\	.
.	.	.	.	.	16d\JJ	.
.	.	4AA/	.	.	[4.cc\	16e-\LL]
.	.	.	.	.	.	16A\
.	.	.	.	.	.	16B-\
.	.	.	.	.	.	16c\
.	.	8r	.	.	.	16d\
.	.	.	.	.	.	16e\JJ
.	.	4D/	.	.	16cc\LL]	[4.f\
.	.	.	.	.	16b-\	.
.	.	.	.	.	16a\	.
.	.	.	.	.	16g\	.
.	.	8r	.	.	16f\	.
.	.	.	.	.	16e-\JJ	.
.	.	4BB-/	.	.	[4.dd\	16f\LL]
.	.	.	.	.	.	16B-\
.	.	.	.	.	.	16c\
.	.	.	.	.	.	16d\
.	.	8r	.	.	.	16e\
.	.	.	.	.	.	16f#\JJ
=51	=51	=51	=51	=51	=51	=51
1.r	1.r	4E-\	1.r	1.r	16dd\LL]	8.g\L
.	.	.	.	.	16cc\	.
.	.	.	.	.	16b-\	.
.	.	.	.	.	16a\	16b-\LL
.	.	8r	.	.	16g\	16cc\
.	.	.	.	.	16f#\JJ	16dd\JJ
.	.	4C/	.	.	(16g\LL	16ee-\LL
.	.	.	.	.	16f\	16dd\
.	.	.	.	.	16e-\)	16cc\
.	.	.	.	.	16d\	16b-\
.	.	8r	.	.	16c\	16a\
.	.	.	.	.	16B-\JJ	16g\JJ
.	.	4D\	.	.	(16A/LL	(16f#\LL
.	.	.	.	.	16G/	16e\
.	.	.	.	.	16A/)	16f#\)
.	.	.	.	.	16B-/	16g\
.	.	8r	.	.	16A/	16f#\
.	.	.	.	.	16B-/JJ	16g\JJ
.	.	4DD/	.	.	(16c/LL	(16a\LL
.	.	.	.	.	16B-/	16g\
.	.	.	.	.	16c/)	16a\)
.	.	.	.	.	16d/	16b-\
.	.	8r	.	.	16c/	16a\
.	.	.	.	.	16d/JJ	16b-\JJ
=52	=52	=52	=52	=52	=52	=52
4G\	4GG\	4G\	4B-\	4d\	(8B-\L	(8g\L
.	.	.	.	.	8d\)	8f#\)
8r	8r	8r	8r	8r	8g\J	8g\J
4F\	4FF\	4F\	4G/	4d\	(8B-\L	(8B-\L
.	.	.	.	.	8d\)	8d\)
8r	8r	8r	8r	8r	8g\J	8g\J
4E-\	4EE-\	4E-\	4B-\	4e-\	(8g\L	(8g\L
.	.	.	.	.	8f#\)	8f#\)
8r	8r	8r	8r	8r	8g\J	8g\J
4D\	4DD\	4D\	4d\	4g\	(8B-\L	(8B-\L
.	.	.	.	.	8d\)	8d\)
8r	8r	8r	8r	8r	8g\J	8g\J
=53	=53	=53	=53	=53	=53	=53
4C/	4CC/	4C/	4e-\	4g\	(8a\L	(8a\L
.	.	.	.	.	8g\)	8g\)
8r	8r	8r	8r	8r	8a\J	8a\J
4D\	4DD\	4D\	4d\	4f#\	(8d\L	(8d\L
.	.	.	.	.	8f#\)	8f#\)
8r	8r	8r	8r	8r	8a\J	8a\J
4GG/	4GGG/	4GG/	(8d\L	(8g\L	(8b-\L	(8b-\L
.	.	.	8c\)	8f#\)	8a\)	8a\)
8D\	8DD\	8D\	8d\J	8g\J	8b-\J	8b-\J
4G\	4GG\	(16G\LL	4B-\	4d\	4g\	4g\
.	.	16A\	.	.	.	.
.	.	16B-\)	.	.	.	.
.	.	16A\	.	.	.	.
8r	8r	16G\	8r	8r	8r	8dd\
.	.	16F\JJ	.	.	.	.
=54	=54	=54	=54	=54	=54	=54
2.r	2.r	(16E\LL	2.r	2.r	8r	[4.gg\
.	.	16F\	.	.	.	.
.	.	16G\)	.	.	8r	.
.	.	16F\	.	.	.	.
.	.	16E\	.	.	8b\	.
.	.	16D\JJ	.	.	.	.
.	.	(16C#\LL	.	.	[4.ee\	8gg\L]
.	.	16E\	.	.	.	.
.	.	16A\)	.	.	.	8cc#\
.	.	16G\	.	.	.	.
.	.	16F\	.	.	.	8ee\J
.	.	16E\JJ	.	.	.	.
8r	8r	8D\L	8r	8r	8ee\L]	(16ff\LL
.	.	.	.	.	.	16ee\)
8r	8r	8F\	8r	8r	8a\	16dd\
.	.	.	.	.	.	16ff\
8AA/	8AAA/	8A\J	8e\	8a\	8cc#\J	16ee\
.	.	.	.	.	.	16gg\JJ
4D/	4DD/	8d\L	4d\	4a\	8dd\L	16ff\LL
.	.	.	.	.	.	16a\
.	.	8F\	.	.	8d\J	(16dd\
.	.	.	.	.	.	32ee\LLL
.	.	.	.	.	.	32ff\JJJ)
8r	8r	8A\J	8r	8r	8r	(16ee\LL
.	.	.	.	.	.	32ff\LLL
.	.	.	.	.	.	32gg\JJJ)
=55	=55	=55	=55	=55	=55	=55
2.r	2.r	(16D\LL	2.r	2.r	8r	[4.ff\
.	.	16E-\	.	.	.	.
.	.	16F\)	.	.	8r	.
.	.	16E-\	.	.	.	.
.	.	16D\	.	.	8a\	.
.	.	16C\JJ	.	.	.	.
.	.	(16BB\LL	.	.	[4.dd\	8ff\L]
.	.	16D\	.	.	.	.
.	.	16G\)	.	.	.	8b\
.	.	16F\	.	.	.	.
.	.	16E-\	.	.	.	8dd\J
.	.	16D\JJ	.	.	.	.
8r	8r	8C\L	8r	8r	8dd\L]	(16ee-\LL
.	.	.	.	.	.	16dd\
8r	8r	8E-\	8r	8r	8g\	16cc\)
.	.	.	.	.	.	16ee-\
8GG/	8GGG/	8G\J	8d\	8g\	8b\J	16dd\
.	.	.	.	.	.	16ff\JJ
4C/	4CC/	(16c\LL	4c\	4g\	[4.cc\	8ee-\L
.	.	16d\	.	.	.	.
.	.	16c\)	.	.	.	8cc\
.	.	16B-\	.	.	.	.
8r	8r	16A\	8r	8r	.	8ee-\J
.	.	16G\JJ	.	.	.	.
=56	=56	=56	=56	=56	=56	=56
4.r	4.r	(16F#\LL	4.r	4.r	8cc\L]	[4.dd\
.	.	16A\	.	.	.	.
.	.	16d\)	.	.	8f#\	.
.	.	16c\	.	.	.	.
.	.	16B-\	.	.	8a\J	.
.	.	16A\JJ	.	.	.	.
8r	8r	(16G\LL	8r	8r	[4.b-\	8dd\L]
.	.	16A\	.	.	.	.
8r	8r	16B-\)	8r	8r	.	8g\
.	.	16A\	.	.	.	.
8G\	8GG\	16G\	8B-\	8d\	.	8b-\J
.	.	16F\JJ	.	.	.	.
4.E\	4.EE\	(16E\LL	4.B-\	4.g\	8b-\L]	[4.cc\
.	.	16G\	.	.	.	.
.	.	16c\)	.	.	8e\	.
.	.	16B-\	.	.	.	.
.	.	16A\	.	.	8g\J	.
.	.	16G\JJ	.	.	.	.
8r	8r	(16F\LL	8r	8r	[4.a\	8cc\L]
.	.	16G\	.	.	.	.
8r	8r	16A\)	8r	8r	.	8f\
.	.	16G\	.	.	.	.
8F\	8FF\	16F\	8A\	8c\	.	8a\J
.	.	16E\JJ	.	.	.	.
=57	=57	=57	=57	=57	=57	=57
4.D\	4.DD\	(16D\LL	4.A\	4.f\	8a\L]	[4.b-\
.	.	16F\	.	.	.	.
.	.	16B-\)	.	.	8d\	.
.	.	16A\	.	.	.	.
.	.	16G\	.	.	8f\J	.
.	.	16F\JJ	.	.	.	.
8r	8r	(16E\LL	8r	8r	[4.g\	8b-\L]
.	.	16F\	.	.	.	.
8r	8r	16G\)	8r	8r	.	8e\
.	.	16F\	.	.	.	.
8E\	8EE\	16E\	8G/	8b-\	.	8g\J
.	.	16D\JJ	.	.	.	.
4.C#/	4.CC#/	(8C#\L	4.A\	4.e\	(16g\LL]	[2.a\
.	.	.	.	.	16a\	.
.	.	8D\)	.	.	16g\	.
.	.	.	.	.	16f\	.
.	.	8E\J	.	.	16e\	.
.	.	.	.	.	16f\JJ)	.
4.r	4.r	4AA/	4.r	4.r	(16g\LL	.
.	.	.	.	.	16f\	.
.	.	.	.	.	16g\)	.
.	.	.	.	.	16a\	.
.	.	8C#/	.	.	16g\	.
.	.	.	.	.	16a\JJ	.
=58	=58	=58	=58	=58	=58	=58
4D\	4DD\	4D\	4A\	4A\	16f\LL	4.a\]
.	.	.	.	.	16a\	.
.	.	.	.	.	16e\	.
.	.	.	.	.	16a\	.
8r	8r	8r	8a\	8a\	16d\	.
.	.	.	.	.	16a\JJ	.
4AA/	4AAA/	4AA/	4A\	4A\	16c#\LL	8r
.	.	.	.	.	16a\	.
.	.	.	.	.	16B\	16r
.	.	.	.	.	16a\	16a\LL
8r	8r	8r	8a\	8a\	16c#\	16gg\
.	.	.	.	.	16a\JJ	16a\JJ
4DD/	4DDD/	4DD/	4A\	4A\	16d\LL	16ff\LL
.	.	.	.	.	16a\	16a\
.	.	.	.	.	16c#\	16ee\
.	.	.	.	.	16a\	16a\
8r	8r	8r	8a\	8a\	16d\	16dd\
.	.	.	.	.	16a\JJ	16a\JJ
4AA/	4AAA/	4AA/	4A\	4A\	16e\LL	16cc#\LL
.	.	.	.	.	16a\	16a\
.	.	.	.	.	16d\	16b\
.	.	.	.	.	16a\	16a\
8r	8r	8r	8a\	8a\	16e\	16cc#\
.	.	.	.	.	16a\JJ	16a\JJ
=59	=59	=59	=59	=59	=59	=59
4D\	4DD\	4D\	4A\	4A\	16f\LL	16dd\LL
.	.	.	.	.	16a\	16a\
.	.	.	.	.	16e\	16cc#\
.	.	.	.	.	16a\	16a\
8r	8r	8r	8a\	8a\	16f\	16dd\
.	.	.	.	.	16a\JJ	16a\JJ
4A\	4AA\	4A\	4A\	4A\	16g\LL	16ee\LL
.	.	.	.	.	16a\	16a\
.	.	.	.	.	16f\	16dd\
.	.	.	.	.	16a\	16a\
8r	8r	8r	8a\	8a\	16e\	16cc#\
.	.	.	.	.	16a\JJ	16a\JJ
4d\	4D\	4d\	4A\	4A\	16f\LL	16dd\LL
.	.	.	.	.	16a\	16a\
.	.	.	.	.	16e\	16ee\
.	.	.	.	.	16a\	16a\
8r	8r	8r	8a\	8a\	16d\	16ff\
.	.	.	.	.	16a\JJ	16a\JJ
4A\	4AA\	4A\	4A\	4A\	16c#\LL	8ee\L
.	.	.	.	.	16A\	.
.	.	.	.	.	16c#\	8a\J
.	.	.	.	.	16e\	.
8r	8r	8r	8r	8r	16a\	8r
.	.	.	.	.	16g\JJ	.
=60	=60	=60	=60	=60	=60	=60
1.r	1.r	4D\	1.r	1.r	[4.f\	16r
.	.	.	.	.	.	16d\LL
.	.	.	.	.	.	16f\
.	.	.	.	.	.	16a\
.	.	8r	.	.	.	16dd\
.	.	.	.	.	.	16cc\JJ
.	.	4G\	.	.	16f\LL]	[4.b-\
.	.	.	.	.	16G\	.
.	.	.	.	.	16B-\	.
.	.	.	.	.	16d\	.
.	.	8r	.	.	16g\	.
.	.	.	.	.	16f\JJ	.
.	.	4C/	.	.	[4.e\	16b-\LL]
.	.	.	.	.	.	16c\
.	.	.	.	.	.	16e\
.	.	.	.	.	.	16g\
.	.	8r	.	.	.	16cc\
.	.	.	.	.	.	16b-\JJ
.	.	4F\	.	.	16e\LL]	[4.a\
.	.	.	.	.	16F\	.
.	.	.	.	.	16A\	.
.	.	.	.	.	16c\	.
.	.	8r	.	.	16f\	.
.	.	.	.	.	16e\JJ	.
=61	=61	=61	=61	=61	=61	=61
1.r	1.r	4B-\	1.r	1.r	[4.d\	16a\LL]
.	.	.	.	.	.	16B-\
.	.	.	.	.	.	16d\
.	.	.	.	.	.	16f\
.	.	8r	.	.	.	16b-\
.	.	.	.	.	.	16a\JJ
.	.	4E\	.	.	16d/LL]	[4.g\
.	.	.	.	.	16E/	.
.	.	.	.	.	16G/	.
.	.	.	.	.	16B/	.
.	.	8r	.	.	16e/	.
.	.	.	.	.	16d/JJ	.
.	.	4A\	.	.	4.c#\	16g\LL]
.	.	.	.	.	.	16A\
.	.	.	.	.	.	16c#\
.	.	.	.	.	.	16e\
.	.	8r	.	.	.	16a\
.	.	.	.	.	.	16g\JJ
.	.	4D\	.	.	16r	[4.f\
.	.	.	.	.	16d\LL	.
.	.	.	.	.	16e\	.
.	.	.	.	.	16f\	.
.	.	8r	.	.	16g\	.
.	.	.	.	.	16a\JJ	.
=62	=62	=62	=62	=62	=62	=62
1.r	1.r	4G\	1.r	1.r	[4.b-\	16f\LL]
.	.	.	.	.	.	16e\
.	.	.	.	.	.	16d\
.	.	.	.	.	.	16c\
.	.	8r	.	.	.	16B-\
.	.	.	.	.	.	16A\JJ
.	.	4E\	.	.	16b-\LL]	[4.g\
.	.	.	.	.	16e\	.
.	.	.	.	.	16f\	.
.	.	.	.	.	16g\	.
.	.	8r	.	.	16a\	.
.	.	.	.	.	16b\JJ	.
.	.	4A\	.	.	[4.cc\	16g\LL]
.	.	.	.	.	.	16f\
.	.	.	.	.	.	16e\
.	.	.	.	.	.	16d\
.	.	8r	.	.	.	16c\
.	.	.	.	.	.	16B-\JJ
.	.	4F\	.	.	16cc\LL]	[4.a\
.	.	.	.	.	16f\	.
.	.	.	.	.	16g\	.
.	.	.	.	.	16a\	.
.	.	8r	.	.	16b\	.
.	.	.	.	.	16cc#\JJ	.
=63	=63	=63	=63	=63	=63	=63
1.r	1.r	4B-\	1.r	1.r	8.dd\L	16a\LL]
.	.	.	.	.	.	16g\
.	.	.	.	.	.	16f\
.	.	.	.	.	16f\LL	16e\
.	.	8r	.	.	16g\	16d\
.	.	.	.	.	16a\JJ	16c#\JJ
.	.	4G\	.	.	16b-\LL	(16d/LL
.	.	.	.	.	16a\	16c/
.	.	.	.	.	16g\	16B-/)
.	.	.	.	.	16f\	16A/
.	.	8r	.	.	16e\	16G/
.	.	.	.	.	16d\JJ	16F/JJ
.	.	4A\	.	.	(16c#\LL	(16E/LL
.	.	.	.	.	16B\	16D/
.	.	.	.	.	16c#\)	16E/)
.	.	.	.	.	16d\	16F/
.	.	8r	.	.	16c#\	16E/
.	.	.	.	.	16d\JJ	16F/JJ
.	.	4AA/	.	.	(16e\LL	(16G/LL
.	.	.	.	.	16d\	16F/
.	.	.	.	.	16e\)	16G/)
.	.	.	.	.	16f\	16A/
.	.	8r	.	.	16e\	16G/
.	.	.	.	.	16f\JJ	16A/JJ
=64	=64	=64	=64	=64	=64	=64
4D\	4DD\	4D\	4F/	4A\	8d/L	8F/L
.	.	.	.	.	8A/	8A/
8r	8r	8r	8r	8r	[8B-/J	[8B-/J
4DD/	4DDD/	4DD/	4D/	4G/	8B-/L]	8B-/L]
.	.	.	.	.	8A/	8A/
8r	8r	8r	8r	8r	[8d/J	[8d/J
4D\	4DD\	4D\	4A\	4F/	8d/L]	8d/L]
.	.	.	.	.	8A/	8A/
8r	8r	8r	8r	8r	[8B-/J	[8B-/J
4DD/	4DDD/	4DD/	4G/	4D/	8B-/L]	8B-/L]
.	.	.	.	.	8A/	8A/
8D\	8DD\	8D\	8F/	8A\	[8d/J	[8d/J
=65	=65	=65	=65	=65	=65	=65
4G\	4GG\	4G\	4D/	4B\	8d\L]	8d\L]
.	.	.	.	.	8B\	8B\
8E\	8EE\	8E\	8E/	8B\	[8g\J	[8g\J
4A\	4AA\	4A\	4E/	4c#\	8g\L]	8g\L]
.	.	.	.	.	8c#\	8c#\
8C#/	8CC#/	8C#/	8E/	8e\	8a\J	8a\J
8D/L	8DD/L	8D/L	8A/L	8d\L	8f\L	8f\L
8FF/	8FFF/	8FF/	8F/	8A\	8d\	8d\
8AA/J	8AAA/J	8AA/J	8E/J	8A\J	8c#t\J	8c#t\J
4DD/	4DDD/	4DD/	4F/	4A\	4d\	4d\
8r	8r	8r	8r	8r	8f\	8f\
=66	=66	=66	=66	=66	=66	=66
4B-\	4BB-\	4B-\	4d\	4f\	(8b-\L	(8b-\L
.	.	.	.	.	8a\)	8a\)
8r	8r	8r	8r	8r	8b-\J	8b-\J
4A\	4AA\	4A\	4B-\	4f\	(8d\L	(8d\L
.	.	.	.	.	8f\)	8f\)
8r	8r	8r	8r	8r	8b-\J	8b-\J
4G\	4GG\	4G\	4d\	4g\	(8b-\L	(8b-\L
.	.	.	.	.	8a\)	8a\)
8r	8r	8r	8r	8r	8b-\J	8b-\J
4F\	4FF\	4F\	4f\	4b-\	(8d\L	(8d\L
.	.	.	.	.	8f\)	8f\)
8r	8r	8r	8r	8r	8b-\J	8b-\J
=67	=67	=67	=67	=67	=67	=67
4E-\	4EE-\	4E-\	4g\	4b-\	(8cc\L	(8cc\L
.	.	.	.	.	8b-\)	8b-\)
8r	8r	8r	8r	8r	8cc\J	8cc\J
4F\	4FF\	4F\	4f\	4a\	(8f\L	(8f\L
.	.	.	.	.	8a\)	8a\)
8r	8r	8r	8r	8r	8cc\J	8cc\J
4BB-/	4BBB-/	4BB-/	(8f\L	(8b-\L	(8dd\L	(8dd\L
.	.	.	8e-\)	8a\)	8cc\)	8cc\)
8F\	8FF\	8F\	8f\J	8b-\J	8dd\J	8dd\J
(8B-\L	(8BB-\L	(8B-\L	(8d\L	4f\	4b-\	4b-\
8A\)	8AA\)	8A\)	8c\)	.	.	.
8B-\J	8BB-\J	8B-\J	8d\J	8f\	[8dd\	[8dd\
=68	=68	=68	=68	=68	=68	=68
4E\	4EE\	4E\	4G/	4g\	8dd\L]	8dd\L]
.	.	.	.	.	8g\	8g\
8r	8r	8r	8r	8r	[8b-\J	[8b-\J
4C/	4CC/	4C/	4e\	4g\	8b-\L]	8b-\L]
.	.	.	.	.	8e\	8e\
8r	8r	8r	8r	8r	[8cc\J	[8cc\J
4D\	4DD\	4D\	4A\	4f\	8cc\L]	8cc\L]
.	.	.	.	.	8f\	8f\
8r	8r	8r	8r	8r	[8a\J	[8a\J
4BB-/	4BBB-/	4BB-/	4d\	4f\	8a\L]	8a\L]
.	.	.	.	.	8d\	8d\
8r	8r	8r	8r	8r	[8b-\J	[8b-\J
=69	=69	=69	=69	=69	=69	=69
4C/	4CC/	4C/	4G/	4e\	8b-\L]	8b-\L]
.	.	.	.	.	8e\	8e\
8BB-/	8BBB-/	8BB-/	8E/	8c\	[8g\J	[8g\J
4AA/	4AAA/	4AA/	4A\	4c\	8g\L]	8g\L]
.	.	.	.	.	8c\	8c\
8GG/	8GGG/	8GG/	8B-\	8e\	8b-\J	8b-\J
4FF/	4FFF/	4FF/	(8c\L	(8f\L	(8a\L	(8a\L
.	.	.	8B-\)	8e\)	8g\)	8g\)
8C/	8CC/	8C/	8c\J	8f\J	8a\J	8a\J
(8F\L	(8FF\L	(8F\L	(8A\L	4c\	(8f\L	(8f\L
8E-\)	8EE-\)	8E-\)	8G\)	.	8a\)	8a\)
8F\J	8FF\J	8F\J	8A\J	8f\	8cc\J	8cc\J
=70	=70	=70	=70	=70	=70	=70
4D\	4DD\	4D\	4B-\	4f\	8ff\L	8ff\L
.	.	.	.	.	8b-\	8b-\
8r	8r	8r	8r	8r	[8dd\J	[8dd\J
4G\	4GG\	4G\	4B-\	4f\	8dd\L]	8dd\L]
.	.	.	.	.	8g\	8g\
8r	8r	8r	8r	8r	[8ee-\J	[8ee-\J
4C/	4CC/	4C/	4B-\	4e-\	8ee-\L]	8ee-\L]
.	.	.	.	.	8a\	8a\
8r	8r	8r	8r	8r	[8cc\J	[8cc\J
4F\	4FF\	4F\	4A\	4f\	8cc\L]	8cc\L]
.	.	.	.	.	8f\	8f\
8r	8r	8r	8r	8r	[8dd\J	[8dd\J
=71	=71	=71	=71	=71	=71	=71
4BB-/	4BBB-/	4BB-/	4B-\	8f\L	8dd\L]	8dd\L]
.	.	.	.	8d\	8f\	8f\
8B-\	8BB-\	8B-\	8d\	8f\J	[8b-\J	[8b-\J
4BB-/	4BBB-/	4BB-/	4F/	8d\L	8b-\L]	8b-\L]
.	.	.	.	8B-\	8d\	8d\
8B-\	8BB-\	8B-\	8B-\	8d\J	[8f\J	[8f\J
4BB-/	4BBB-/	4BB-/	8D/L	8B-\L	8f\L]	8f\L]
.	.	.	8F/	8d\	8B-\	8B-\
8B-\	8BB-\	8B-\	8B-/J	8f\J	8d\J	8d\J
4BB-/	4BBB-/	4BB-/	8d\L	8b-\L	8f\L	8f\L
.	.	.	8B-\	8f\	8d\	8d\
8B-\	8BB-\	8B-\	8d\J	8b-\J	8f\J	8f\J
=72	=72	=72	=72	=72	=72	=72
4BB-/	4BBB-/	4BB-/	4f\	4d\	8b-\L	8b-\L
.	.	.	.	.	8f\	8f\
8r	8r	8r	8r	8r	[8g\J	[8g\J
4B-\	4BB-\	4B-\	4B-\	4e-\	8g\L]	8g\L]
.	.	.	.	.	8f\	8f\
8r	8r	8r	8r	8r	[8b-\J	[8b-\J
4BB-/	4BBB-/	4BB-/	4F/	4d\	8b-\L]	8b-\L]
.	.	.	.	.	8f\	8f\
8r	8r	8r	8r	8r	[8g\J	[8g\J
4B-\	4BB-\	4B-\	4B-\	4e-\	8g\L]	8g\L]
.	.	.	.	.	8f\	8f\
8BB-/	8BBB-/	8BB-/	8F/	8d\	[8b-\J	[8b-\J
=73	=73	=73	=73	=73	=73	=73
4E-\	4EE-\	4E-\	4G/	4e-\	8b-\L]	8b-\L]
.	.	.	.	.	8g\	8g\
8C/	8CC/	8C/	8c\	8g\	[8ee-\J	[8ee-\J
4F\	4FF\	4F\	4A\	4f\	8ee-\L]	8ee-\L]
.	.	.	.	.	8a\	8a\
8AA/	8AAA/	8AA/	8F/	8cc\	8ff\J	8ff\J
8BB-\L	8BBB-\L	8BB-\L	8f\L	8b-\L	8dd\L	8dd\L
8D\	8DD\	8D\	8d\	8f\	8b-\	8b-\
8F\J	8FF\J	8F\J	8c\J	8f\J	8a\J	8a\J
8B-\L	8BB-\L	8B-\L	4d\	4f\	4b-\	8.b-\
8D\	8DD\	8D\	.	.	.	.
.	.	.	.	.	.	16f\LL
8F\J	8FF\J	8F\J	8r	8r	8r	16g\
.	.	.	.	.	.	16a\JJ
=74	=74	=74	=74	=74	=74	=74
4BB-/	4BBB-/	(8BB-/L	1.r	1.r	8r	(16b-\LL
.	.	.	.	.	.	16a\JJ
.	.	8D/	.	.	16r	8b-\J)
.	.	.	.	.	16f\LL	.
8r	8r	8F/J)	.	.	16g\	8r
.	.	.	.	.	16a\JJ	.
4.r	4.r	(8AA/L	.	.	(16b-\LL	8r
.	.	.	.	.	16a\JJ	.
.	.	8D/	.	.	8b-\J)	16r
.	.	.	.	.	.	16f\LL
.	.	8F/J)	.	.	8r	16g\
.	.	.	.	.	.	16a\JJ
2.r	2.r	(8GG/L	.	.	8r	(16b-\LL
.	.	.	.	.	.	16a\JJ
.	.	8BB-/	.	.	16r	8b-\J)
.	.	.	.	.	16f\LL	.
.	.	8D/J)	.	.	16g\	8r
.	.	.	.	.	16a\JJ	.
.	.	(8FF/L	.	.	(16b-\LL	8r
.	.	.	.	.	16a\JJ	.
.	.	8BB-/	.	.	8b-\J)	16r
.	.	.	.	.	.	16g\LL
.	.	8D/J)	.	.	8r	16a\
.	.	.	.	.	.	16b-\JJ
=75	=75	=75	=75	=75	=75	=75
1.r	1.r	(8EE-/L	1.r	1.r	8r	(16cc\LL
.	.	.	.	.	.	16b-\
.	.	8GG/	.	.	16r	16cc\)
.	.	.	.	.	16g\LL	16b-\
.	.	8C/J)	.	.	16a\	16a\
.	.	.	.	.	16b-\JJ	16g\JJ
.	.	(8AA/L	.	.	(16cc\LL	8f\L
.	.	.	.	.	16b-\	.
.	.	8C/)	.	.	16cc\)	8a\
.	.	.	.	.	16b-\	.
.	.	8FF/J	.	.	16a\	8cc\J
.	.	.	.	.	16g\JJ	.
.	.	(8BB-\L	.	.	(16f\LL	(16dd\LL
.	.	.	.	.	16e-\	16cc\
.	.	8D\	.	.	16f\)	16dd\)
.	.	.	.	.	16g\	16ee-\
.	.	8F\J)	.	.	16f\	16dd\
.	.	.	.	.	16e-\JJ	16cc\JJ
.	.	(8B-\L	.	.	(16d\LL	8b-\L
.	.	.	.	.	16c\	.
.	.	8A\)	.	.	16d\)	8f\
.	.	.	.	.	16e-\	.
.	.	8B-\J	.	.	16f\	[8dd\J
.	.	.	.	.	16d\JJ	.
=76	=76	=76	=76	=76	=76	=76
1.r	1.r	8E\L	1.r	1.r	(16g\LL	8dd\L]
.	.	.	.	.	16a\	.
.	.	8G\	.	.	16b-\)	8g\
.	.	.	.	.	16a\	.
.	.	8E\J	.	.	16g\	[8b-\J
.	.	.	.	.	16f\JJ	.
.	.	8C\L	.	.	(16e\LL	8b-\L]
.	.	.	.	.	16d\	.
.	.	8A\	.	.	16c\)	8e\
.	.	.	.	.	16d\	.
.	.	8C\J	.	.	16e\	[8cc\J
.	.	.	.	.	16c\JJ	.
.	.	8D\L	.	.	(16f\LL	8cc\L]
.	.	.	.	.	16g\	.
.	.	8F\	.	.	16a\)	8f\
.	.	.	.	.	16g\	.
.	.	8D\J	.	.	16f\	[8a\J
.	.	.	.	.	16e\JJ	.
.	.	8BB-\L	.	.	(16d\LL	8a\L]
.	.	.	.	.	16c\	.
.	.	8G\	.	.	16B-\)	8d\
.	.	.	.	.	16c\	.
.	.	8BB-\J	.	.	16d\	[8b-\J
.	.	.	.	.	16B-\JJ	.
=77	=77	=77	=77	=77	=77	=77
1.r	1.r	4C/	1.r	1.r	(16e\LL	8b-\L]
.	.	.	.	.	16f\	.
.	.	.	.	.	16g\)	8e\
.	.	.	.	.	16f\	.
.	.	8BB-/	.	.	16e\	[8g\J
.	.	.	.	.	16d\JJ	.
.	.	4AA/	.	.	(16c\LL	8g\L]
.	.	.	.	.	16d\	.
.	.	.	.	.	16e\)	8c\
.	.	.	.	.	16d\	.
.	.	8GG/	.	.	16c\	8b-\J
.	.	.	.	.	16B-\JJ	.
.	.	4FF/	.	.	(16c\LL	8a\L
.	.	.	.	.	16f\	.
.	.	.	.	.	16e\)	8g\
.	.	.	.	.	16d\	.
.	.	8r	.	.	16c\	8a\J
.	.	.	.	.	16B-\JJ	.
.	.	4.r	.	.	(16A/LL	8f\L
.	.	.	.	.	16B-/	.
.	.	.	.	.	16c/)	8A\J
.	.	.	.	.	16B-/	.
.	.	.	.	.	16A/	8c\
.	.	.	.	.	16G/JJ	.
=78	=78	=78	=78	=78	=78	=78
4F\	4FF\	4F\	4A\	4c\	4F/	(8f\L
.	.	.	.	.	.	8e\)
8r	8r	8r	8r	8r	8f\	8f\J
4E\	4EE\	4E\	4F/	4c\	(8A\L	(8A\L
.	.	.	.	.	8c\)	8c\)
8r	8r	8r	8r	8r	8f\J	8f\J
4D\	4DD\	4D\	4A\	4d\	(8f\L	(8f\L
.	.	.	.	.	8e\)	8e\)
8r	8r	8r	8r	8r	8f\J	8f\J
4C/	4CC/	4C/	4c\	4f\	(8A\L	(8A\L
.	.	.	.	.	8c\)	8c\)
8r	8r	8r	8r	8r	8f\J	8f\J
=79	=79	=79	=79	=79	=79	=79
4BB-/	4BBB-/	4BB-/	4d\	4f\	(8g\L	(8g\L
.	.	.	.	.	8f\)	8f\)
8r	8r	8r	8r	8r	8g\J	8g\J
4C/	4CC/	4C/	4c\	4e\	(8c\L	(8c\L
.	.	.	.	.	8e\)	8e\)
8r	8r	8r	8r	8r	8g\J	8g\J
[4.FF/	[4.FFF/	[4.FF/	(8c\L	(8f\L	(8a\L	(8a\L
.	.	.	8B-\)	8e\)	8g\)	8g\)
.	.	.	8c\J	8f\J	8a\J	8a\J
4FF/]	4FFF/]	8FF/]	4A\	4c\	8.f\	4f\
.	.	8AA/L	.	.	.	.
.	.	.	.	.	16c\LL	.
8r	8r	8C/J	8r	8r	16d\	8r
.	.	.	.	.	16e\JJ	.
=80	=80	=80	=80	=80	=80	=80
1.r	1.r	(8F\L	1.r	1.r	(16f\LL	8r
.	.	.	.	.	16e\JJ	.
.	.	8A\	.	.	8f\J)	16r
.	.	.	.	.	.	16c\LL
.	.	8c\J)	.	.	8r	16d\
.	.	.	.	.	.	16e\JJ
.	.	(8E\L	.	.	8r	(16f\LL
.	.	.	.	.	.	16e\JJ
.	.	8A\	.	.	16r	8f\J)
.	.	.	.	.	16c\LL	.
.	.	8c\J)	.	.	16d\	8r
.	.	.	.	.	16e\JJ	.
.	.	(8D\L	.	.	(16f\LL	8r
.	.	.	.	.	16e\JJ	.
.	.	8F\	.	.	8f\J)	16r
.	.	.	.	.	.	16c\LL
.	.	8A\J)	.	.	8r	16d\
.	.	.	.	.	.	16e\JJ
.	.	(8C\L	.	.	8r	(16f\LL
.	.	.	.	.	.	16e\JJ
.	.	8F\	.	.	16r	8f\J)
.	.	.	.	.	16d\LL	.
.	.	8A\J)	.	.	16e\	8r
.	.	.	.	.	16f\JJ	.
=81	=81	=81	=81	=81	=81	=81
1.r	1.r	(8BB-\L	1.r	1.r	(16g\LL	8r
.	.	.	.	.	16f\	.
.	.	8D\	.	.	16g\)	16r
.	.	.	.	.	16f\	16d\LL
.	.	8G\J)	.	.	16e\	16e\
.	.	.	.	.	16d\JJ	16f\JJ
.	.	(8E\L	.	.	8c\L	(16g\LL
.	.	.	.	.	.	16f\
.	.	8G\)	.	.	8e\	16g\)
.	.	.	.	.	.	16f\
.	.	8C\J	.	.	8g\J	16e\
.	.	.	.	.	.	16d\JJ
.	.	(8FF/L	.	.	(8a\L	(16c/LL
.	.	.	.	.	.	16B-/
.	.	8AA/	.	.	8g\)	16c/)
.	.	.	.	.	.	16d/
.	.	8C/J)	.	.	8a\J	16c/
.	.	.	.	.	.	16B-/JJ
.	.	(8F\L	.	.	8f\L	(16A/LL
.	.	.	.	.	.	16G/
.	.	8E\)	.	.	8c\	16A/)
.	.	.	.	.	.	16B-/
.	.	8F\J	.	.	[8a\J	16c/
.	.	.	.	.	.	16A/JJ
=82	=82	=82	=82	=82	=82	=82
1.r	1.r	8BB/L	1.r	1.r	8a\L]	(16d\LL
.	.	.	.	.	.	16e\
.	.	8D/	.	.	8d\	16f\)
.	.	.	.	.	.	16e\
.	.	8BB/J	.	.	[8f\J	16d\
.	.	.	.	.	.	16c\JJ
.	.	8GG/L	.	.	8f\L]	(16B/LL
.	.	.	.	.	.	16A/
.	.	8E/	.	.	8B\	16G/)
.	.	.	.	.	.	16A/
.	.	8GG/J	.	.	[8g\J	16B/
.	.	.	.	.	.	16G/JJ
.	.	8AA/L	.	.	8g\L]	(16c\LL
.	.	.	.	.	.	16d\
.	.	8C/	.	.	8c\	16e\)
.	.	.	.	.	.	16d\
.	.	8AA/J	.	.	[8e\J	16c\
.	.	.	.	.	.	16B\JJ
.	.	8FF/L	.	.	8e\L]	(16A/LL
.	.	.	.	.	.	16G/
.	.	8D/	.	.	8A\	16F/)
.	.	.	.	.	.	16G/
.	.	8FF/J	.	.	[8f\J	16A/
.	.	.	.	.	.	16F/JJ
=83	=83	=83	=83	=83	=83	=83
1.r	1.r	4GG/	1.r	1.r	8f\L]	(16B/LL
.	.	.	.	.	.	16c/
.	.	.	.	.	8B\	16d/)
.	.	.	.	.	.	16c/
.	.	8FF/	.	.	[8d\J	16B/
.	.	.	.	.	.	16A/JJ
.	.	4EE/	.	.	8d\L]	(16G/LL
.	.	.	.	.	.	16A/
.	.	.	.	.	8G\	16B/)
.	.	.	.	.	.	16A/
.	.	8DD/	.	.	8f\J	16G/
.	.	.	.	.	.	16F/JJ
.	.	4CC/	.	.	(8e\L	(16G/LL
.	.	.	.	.	.	16c/
.	.	.	.	.	8d\)	16B/)
.	.	.	.	.	.	16A/
.	.	8r	.	.	8e\J	16G/
.	.	.	.	.	.	16F/JJ
.	.	4.r	.	.	8c\L	(16E/LL
.	.	.	.	.	.	16F/
.	.	.	.	.	8e\	16G/)
.	.	.	.	.	.	16F/
.	.	.	.	.	8g\J	16E/
.	.	.	.	.	.	16D/JJ
=84	=84	=84	=84	=84	=84	=84
4AA/	4AAA/	4AA/	4c\	4f\	8cc\L	8C/L
.	.	.	.	.	8f\	8c/
8r	8r	8r	8r	8r	[8a\J	[8a/J
4D\	4DD\	4D\	4c\	4f\	8a\L]	8a\L]
.	.	.	.	.	8d\	8d\
8r	8r	8r	8r	8r	[8b-\J	[8b-\J
4GG/	4GGG/	4GG/	4B-\	4f\	8b-\L]	8b-\L]
.	.	.	.	.	8e\	8e\
8r	8r	8r	8r	8r	[8g\J	[8g\J
4C/	4CC/	4C/	4c\	4e\	8g\L]	8g\L]
.	.	.	.	.	8c\	8c\
8r	8r	8r	8r	8r	[8a\J	[8a\J
=85	=85	=85	=85	=85	=85	=85
4FF/	4FFF/	4FF/	4c\	4f\	16a\LL]	8a\L]
.	.	.	.	.	16f\	.
.	.	.	.	.	16e\	8c\
.	.	.	.	.	16d\	.
8r	8r	8F\	8r	8r	16c\	[8f\J
.	.	.	.	.	16B-\JJ	.
4.r	4.r	4FF/	4.r	4.r	16A/LL	8f\L]
.	.	.	.	.	16d/	.
.	.	.	.	.	16c/	8A\
.	.	.	.	.	16B-/	.
.	.	8F\	.	.	16A/	[8c\J
.	.	.	.	.	16G/JJ	.
2.r	2.r	4FF/	2.r	2.r	16F/LL	8c/L]
.	.	.	.	.	16C/	.
.	.	.	.	.	16D/	8F/
.	.	.	.	.	16E/	.
.	.	8F\	.	.	16F/	8A/J
.	.	.	.	.	16G/JJ	.
.	.	4FF/	.	.	(16A/LL	8c/L
.	.	.	.	.	16G/	.
.	.	.	.	.	16F/)	8A/
.	.	.	.	.	16G/	.
.	.	8F\	.	.	16A/	8c/J
.	.	.	.	.	16B-/JJ	.
=86	=86	=86	=86	=86	=86	=86
4FF/	4FFF/	4FF/	4F/	4A\	8c/L	8f\L
.	.	.	.	.	8F/	8c\
8r	8r	8r	8r	8r	[8d/J	[8d\J
4F\	4FF\	4F\	4F/	4B-\	8d\L]	8d/L]
.	.	.	.	.	8c\	(16c/LL
.	.	.	.	.	.	16B-/)
8r	8r	8r	8r	8r	[8f\J	16A/
.	.	.	.	.	.	16G/JJ
4.r	4.r	4FF/	4.r	4.r	8f\L]	(16A/LL
.	.	.	.	.	.	16B-/
.	.	.	.	.	8c\	16c/)
.	.	.	.	.	.	16B-/
.	.	8r	.	.	[8d\J	16A/
.	.	.	.	.	.	16G/JJ
8r	8r	4F\	8r	8r	8d\L]	(16F/LL
.	.	.	.	.	.	16G/
8r	8r	.	8r	8r	8c\	16A/)
.	.	.	.	.	.	16G/
8FF/	8FFF/	8FF/	8A\	8c\	[8f\J	16F/
.	.	.	.	.	.	16E/JJ
=87	=87	=87	=87	=87	=87	=87
4BB-/	4BBB-/	4BB-/	4B-\	4d\	8f\L]	8D\L
.	.	.	.	.	8d\	8d\
8GG/	8GGG/	8GG/	8d\	8g\	[8b-\J	[8b-\J
4C/	4CC/	4C/	4e\	4G/	8b-\L]	8b-\L]
.	.	.	.	.	8e\	8e\
8E\	8EE\	8E\	8c\	8g\	8cc\J	8cc\J
8F/L	8FF/L	8F\L	8c\L	8f\L	8a\L	8a\L
8AA/	8AAA/	8A\	8A\	8c\	8f\	8f\
8C/J	8CC/J	8c\J	8G\J	8c\J	8et\J	8et\J
4FF/	4FFF/	(16F\LL	4A\	4c\	4f\	4f\
.	.	16G\	.	.	.	.
.	.	16A\)	.	.	.	.
.	.	16G\	.	.	.	.
8r	8r	16F\	8r	8r	8c\	8r
.	.	16E-\JJ	.	.	.	.
=88	=88	=88	=88	=88	=88	=88
2.r	2.r	(16D\LL	2.r	2.r	[4.f\	8r
.	.	16E-\	.	.	.	.
.	.	16F\)	.	.	.	8r
.	.	16E-\	.	.	.	.
.	.	16D\	.	.	.	8a\
.	.	16C\JJ	.	.	.	.
.	.	(16BB\LL	.	.	8f\L]	[4.dd\
.	.	16D\	.	.	.	.
.	.	16G\)	.	.	8B\	.
.	.	16F\	.	.	.	.
.	.	16E-\	.	.	8d\J	.
.	.	16D\JJ	.	.	.	.
8r	8r	8C\L	8r	8r	(16e-\LL	8dd\L]
.	.	.	.	.	16f\	.
8r	8r	8E-\	8r	8r	16g\)	8g\
.	.	.	.	.	16f\	.
8GG/	8GGG/	8G\J	8G/	8g\	16e-\	8b\J
.	.	.	.	.	16d\JJ	.
4C/	4CC/	8c\L	4G/	4e-\	(16e-\LL	8cc\L
.	.	.	.	.	16d\	.
.	.	8E-\	.	.	16c\)	8c\J
.	.	.	.	.	16e-\	.
8r	8r	8G\J	8r	8r	16d\	8r
.	.	.	.	.	16f\JJ	.
=89	=89	=89	=89	=89	=89	=89
2.r	2.r	(16C/LL	2.r	2.r	[4.e-\	8r
.	.	16D/	.	.	.	.
.	.	16E-/)	.	.	.	8r
.	.	16D/	.	.	.	.
.	.	16C/	.	.	.	8g\
.	.	16BB-/JJ	.	.	.	.
.	.	(16AA/LL	.	.	8e-\L]	[4.cc\
.	.	16C/	.	.	.	.
.	.	16F/)	.	.	8A\	.
.	.	16E-/	.	.	.	.
.	.	16D/	.	.	8c\J	.
.	.	16C/JJ	.	.	.	.
8r	8r	8BB-\L	8r	8r	(16d\LL	8cc\L]
.	.	.	.	.	16e-\	.
8r	8r	8D\	8r	8r	16f\)	8f\
.	.	.	.	.	16e-\	.
8FF/	8FFF/	8F\J	8F/	8f\	16d\	8a\J
.	.	.	.	.	16c\JJ	.
4BB-/	4BBB-/	(16B-\LL	4F/	4d\	8d\L	8b-\L
.	.	16c\	.	.	.	.
.	.	16B-\)	.	.	8B-\	8B-\J
.	.	16A\	.	.	.	.
8r	8r	16G\	8r	8r	8d\J	8r
.	.	16F\JJ	.	.	.	.
=90	=90	=90	=90	=90	=90	=90
4.r	4.r	(16E-\LL	4.r	4.r	[4.g\	8r
.	.	16F\	.	.	.	.
.	.	16G\)	.	.	.	8r
.	.	16F\	.	.	.	.
.	.	16E-\	.	.	.	8b-\
.	.	16D\JJ	.	.	.	.
8r	8r	(16C\LL	8r	8r	8g\L]	[4.ee-\
.	.	16E-\	.	.	.	.
8r	8r	16A\)	8r	8r	8c\	.
.	.	16G\	.	.	.	.
8C/	8CC/	16F\	8A/	8c\	8e-\J	.
.	.	16E-\JJ	.	.	.	.
4.D/	4.DD/	(16D\LL	4.F/	4.c\	[4.f\	8ee-\L]
.	.	16E-\	.	.	.	.
.	.	16F\)	.	.	.	8a\
.	.	16E-\	.	.	.	.
.	.	16D\	.	.	.	8cc\J
.	.	16C\JJ	.	.	.	.
8r	8r	(16BB-\LL	8r	8r	8f\L]	[4.dd\
.	.	16D\	.	.	.	.
8r	8r	16G\)	8r	8r	8B-\	.
.	.	16F\	.	.	.	.
8BB-/	8BBB-/	16E-\	8G/	8B-\	8d\J	.
.	.	16D\JJ	.	.	.	.
=91	=91	=91	=91	=91	=91	=91
4.C/	4.CC/	(16C/LL	4.E-/	4.B-\	[4.e-\	8dd\L]
.	.	16D/	.	.	.	.
.	.	16E-/)	.	.	.	8g\
.	.	16D/	.	.	.	.
.	.	16C/	.	.	.	8b-\J
.	.	16BB-/JJ	.	.	.	.
8r	8r	(16AA/LL	8r	8r	8e-\L]	[4.cc\
.	.	16C/	.	.	.	.
8r	8r	16F/)	8r	8r	8A\	.
.	.	16E-/	.	.	.	.
8FF/	8FFF/	16D/	8F/	8A\	8c\J	.
.	.	16C/JJ	.	.	.	.
4.BB-/	4.BBB-/	(16BB-/LL	4.F/	4.B-\	16d\LL	8cc\L]
.	.	16AA/	.	.	16c\	.
.	.	16BB-/)	.	.	16d\	8f\
.	.	16C/	.	.	16e-\	.
.	.	16D/	.	.	16f\	[8b-\J
.	.	16E-/JJ	.	.	16g\JJ	.
4.r	4.r	(16F/LL	4.r	4.r	8c/L	8b-\L]
.	.	16E/	.	.	.	.
.	.	16F/)	.	.	8F/J	8a\
.	.	16C/	.	.	.	.
.	.	16AA/	.	.	[8ff\	[8ff\J
.	.	16C/JJ	.	.	.	.
=92	=92	=92	=92	=92	=92	=92
4FF/	4FFF/	4FF/	4f\	4a\	8ff\L]	8ff\L]
.	.	.	.	.	8cc\	8cc\
8r	8r	8r	8r	8r	[8dd\J	[8dd\J
4F\	4FF\	4F\	4f\	4b-\	8dd\L]	8dd\L]
.	.	.	.	.	8cc\	8cc\
8r	8r	8r	8r	8r	[8ff\J	[8ff\J
4FF/	4FFF/	4FF/	4c\	4a\	8ff\L]	8ff\L]
.	.	.	.	.	8cc\	8cc\
8r	8r	8r	8r	8r	[8dd\J	[8dd\J
4F\	4FF\	16F\LL	4B-\	4f\	8dd\L]	8dd\L]
.	.	16C\	.	.	.	.
.	.	16D\	.	.	8cc\	8cc\
.	.	16E-\	.	.	.	.
8r	8r	16F\	8A\	8f\	8f\J	[8ee-\J
.	.	16G\JJ	.	.	.	.
=93	=93	=93	=93	=93	=93	=93
2.r	2.r	(16A\LL	4F/	4F/	(16cc\LL	8ee-\L]
.	.	16B-\	.	.	16dd\	.
.	.	16c\)	.	.	16ee-\)	8a\
.	.	16B-\	.	.	16dd\	.
.	.	16A\	8f\	8f\	16cc\	[8cc\J
.	.	16G\JJ	.	.	16b-\JJ	.
.	.	(16F\LL	4F/	4F/	(16a\LL	8cc\L]
.	.	16G\	.	.	16b-\	.
.	.	16A\)	.	.	16cc\)	8f\
.	.	16G\	.	.	16b-\	.
.	.	16F\	8f\	8f\	16a\	[8a\J
.	.	16E-\JJ	.	.	16g\JJ	.
8r	8r	(16D\LL	4F/	4F/	(16f\LL	8a\L]
.	.	16E-\	.	.	16g\	.
8r	8r	16F\)	.	.	16a\)	8cc\
.	.	16E-\	.	.	16b-\	.
8FF/	8FFF/	16D\	8f\	8a\	16cc\	[8ee-\J
.	.	16C\JJ	.	.	16a\JJ	.
4BB-/	4BBB-/	16BB-\LL	4F/	4f\	8b-\L	8ee-\L]
.	.	16F\	.	.	.	.
.	.	16G\	.	.	8B-\	8dd\
.	.	16A\	.	.	.	.
8r	8r	16B-\	8d\	8f\	[8a-\J	8B-\J
.	.	16c\JJ	.	.	.	.
=94	=94	=94	=94	=94	=94	=94
2.r	2.r	(16d\LL	4B-\	4B-\	8a-\L]	(16f\LL
.	.	16e-\	.	.	.	16g\
.	.	16f\)	.	.	8d\	16a-\)
.	.	16e-\	.	.	.	16g\
.	.	16d\	8b-\	8b-\	[8f\J	16f\
.	.	16c\JJ	.	.	.	16e-\JJ
.	.	(16B-\LL	4B-\	4B-\	8f\L]	(16d\LL
.	.	16c\	.	.	.	16e-\
.	.	16d\)	.	.	8B-\	16f\)
.	.	16c\	.	.	.	16e-\
.	.	16B-\	8b-\	8b-\	[8d\J	16d\
.	.	16A-\JJ	.	.	.	16c\JJ
8r	8r	(16G\LL	4B-\	4B-\	8d\L]	(16B-\LL
.	.	16A-\	.	.	.	16c\
8r	8r	16B-\)	.	.	8f\	16d\)
.	.	16A-\	.	.	.	16e-\
8BB-/	8BBB-/	16G\	8d\	8b-\	[8a-\J	16f\
.	.	16F\JJ	.	.	.	16d\JJ
4E-\	4EE-\	(16E-\LL	4B-\	4B-\	8a-\L]	8e-\L
.	.	16F\	.	.	.	.
.	.	16G\)	.	.	8g\J	8E-\
.	.	16F\	.	.	.	.
8r	8r	16E-\	8r	8r	8r	[8g\J
.	.	16D\JJ	.	.	.	.
=95	=95	=95	=95	=95	=95	=95
4E\	4EE\	(16C\LL	4G/	4c\	4.r	8g\L]
.	.	16D\	.	.	.	.
.	.	16E\)	.	.	.	8c\
.	.	16D\	.	.	.	.
8r	8r	16E\	8r	8r	.	[8b-\J
.	.	16C\JJ	.	.	.	.
4F\	4FF\	(16F\LL	4F/	4c\	8r	8b-\L]
.	.	16G\	.	.	.	.
.	.	16A\)	.	.	8r	8a\J
.	.	16G\	.	.	.	.
8r	8r	16F\	8r	8r	[8a\	8r
.	.	16E-\JJ	.	.	.	.
4F#\	4FF#\	(16D\LL	4A\	4d\	8a\L]	4.r
.	.	16E\	.	.	.	.
.	.	16F#\)	.	.	8d\	.
.	.	16E\	.	.	.	.
8r	8r	16F#\	8r	8r	[8cc\J	.
.	.	16D\JJ	.	.	.	.
4G\	4GG\	(16G\LL	4G/	4d\	8cc\L]	8r
.	.	16F#\	.	.	.	.
.	.	16G\)	.	.	8b-\J	8r
.	.	16A\	.	.	.	.
8r	8r	16B-\	8r	8r	8r	[8dd\
.	.	16G\JJ	.	.	.	.
=96	=96	=96	=96	=96	=96	=96
4A\	4AA\	(16A\LL	4c\	4f\	4e-\	8dd\L]
.	.	16G\	.	.	.	.
.	.	16A\)	.	.	.	8cc\
.	.	16B-\	.	.	.	.
8r	8r	16c\	8r	8r	8c\	[8ee-\J
.	.	16A\JJ	.	.	.	.
4B-\	4BB-\	(16B-\LL	4B-\	4B-\	4f\	8ee-\L]
.	.	16A\	.	.	.	.
.	.	16B-\)	.	.	.	8dd\
.	.	16c\	.	.	.	.
8r	8r	16d\	8r	8r	8d\	[8ff\J
.	.	16B-\JJ	.	.	.	.
4E-\	4EE-\	(16E-\LL	4G/	4B-\	8.g\L	8ff\L]
.	.	16D\	.	.	.	.
.	.	16E-\)	.	.	.	(16ee-\LL
.	.	16F\	.	.	16f\LL	16dd\)
8r	8r	16G\	8r	8r	16e-\	16cc\
.	.	16E-\JJ	.	.	16d\JJ	16b-\JJ
4F\	4FF\	8F\	4c\	4f\	(16c/LL	(16a\LL
.	.	.	.	.	16B-/	16g\
.	.	8FF/L	.	.	16A/)	16f\)
.	.	.	.	.	16G/	16e-\
8r	8r	8F/J	8r	8r	16F/	16d\
.	.	.	.	.	16E-/JJ	16c\JJ
=97	=97	=97	=97	=97	=97	=97
1.r	1.r	(8BB-/L	1.r	1.r	8D/	(16B-/LL
.	.	.	.	.	.	16A/JJ
.	.	8D/	.	.	16r	8B-/J)
.	.	.	.	.	16F/LL	.
.	.	8F/J)	.	.	16G/	8r
.	.	.	.	.	16A/JJ	.
.	.	(8AA/L	.	.	(16B-/LL	8r
.	.	.	.	.	16A/JJ	.
.	.	8D/	.	.	8B-/J)	16r
.	.	.	.	.	.	16F/LL
.	.	8F/J)	.	.	8r	16G/
.	.	.	.	.	.	16A/JJ
.	.	(8GG/L	.	.	8r	(16B-/LL
.	.	.	.	.	.	16A/JJ
.	.	8BB-/	.	.	16r	8B-/J)
.	.	.	.	.	16F/LL	.
.	.	8D/J)	.	.	16G/	8r
.	.	.	.	.	16A/JJ	.
.	.	(8FF/L	.	.	(16B-/LL	8r
.	.	.	.	.	16A/JJ	.
.	.	8BB-/	.	.	8B-/J)	16r
.	.	.	.	.	.	16G/LL
.	.	8D/J)	.	.	8r	16A/
.	.	.	.	.	.	16B-/JJ
=98	=98	=98	=98	=98	=98	=98
1.r	1.r	(8EE-/L	1.r	1.r	8r	(16c/LL
.	.	.	.	.	.	16B-/
.	.	8GG/	.	.	16r	16c/)
.	.	.	.	.	16G/LL	16B-/
.	.	8C/J)	.	.	16A/	16A/
.	.	.	.	.	16B-/JJ	16G/JJ
.	.	(8AA/L	.	.	(16c/LL	8F/L
.	.	.	.	.	16B-/	.
.	.	8C/)	.	.	16c/)	8A/
.	.	.	.	.	16B-/	.
.	.	8FF/J	.	.	16A/	8c/J
.	.	.	.	.	16G/JJ	.
.	.	(8BB-\L	.	.	(16F/LL	(16d\LL
.	.	.	.	.	16E-/	16c\
.	.	8D\	.	.	16F/)	16d\)
.	.	.	.	.	16G/	16e-\
.	.	8F\J)	.	.	16F/	16d\
.	.	.	.	.	16E-/JJ	16c\JJ
.	.	(8B-\L	.	.	4D/	16B-\LL
.	.	.	.	.	.	16d\
.	.	8A\)	.	.	.	16f\
.	.	.	.	.	.	16b-\
.	.	8B-\J	.	.	[8ff\	16dd\
.	.	.	.	.	.	16ee-\JJ
=99	=99	=99	=99	=99	=99	=99
4D\	4DD\	4D\	4f\	4b-\	8ff\L]	8ff\L
.	.	.	.	.	8b-\	8b-\
8r	8r	8r	8r	8r	[8dd\J	[8dd\J
4G\	4GG\	4G\	4f\	4b-\	8dd\L]	8dd\L]
.	.	.	.	.	8g\	8g\
8r	8r	8r	8r	8r	[8ee-\J	[8ee-\J
4C/	4CC/	4C/	4e-\	4b-\	8ee-\L]	8ee-\L]
.	.	.	.	.	8a\	8a\
8r	8r	8r	8r	8r	[8cc\J	[8cc\J
4F\	4FF\	4F\	4f\	4a\	8cc\L]	8cc\L]
.	.	.	.	.	8f\	8f\
8r	8r	8r	8r	8r	[8dd\J	[8dd\J
=100	=100	=100	=100	=100	=100	=100
4BB-/	4BBB-/	4BB-/	4f\	4b-\	8dd\L]	16dd\LL]
.	.	.	.	.	.	16b-\
.	.	.	.	.	8f\	16a\
.	.	.	.	.	.	16g\
8r	8r	8B-\	8r	8r	[8b-\J	16f\
.	.	.	.	.	.	16e-\JJ
4.r	4.r	4BB-/	4.r	4.r	8b-\L]	16d\LL
.	.	.	.	.	.	16g\
.	.	.	.	.	8d\	16f\
.	.	.	.	.	.	16e-\
.	.	8B-\	.	.	[8f\J	16d\
.	.	.	.	.	.	16c\JJ
2.r	2.r	4BB-/	2.r	2.r	8f\L]	16B-/LL
.	.	.	.	.	.	16F/
.	.	.	.	.	8B-\	16G/
.	.	.	.	.	.	16A/
.	.	8B-\	.	.	8d\J	16B-/
.	.	.	.	.	.	16c/JJ
.	.	4BB-/	.	.	8f\L	16d\LL
.	.	.	.	.	.	16c\
.	.	.	.	.	8d\	16B-\
.	.	.	.	.	.	16c\
.	.	8B-\	.	.	8f\J	16d\
.	.	.	.	.	.	16e-\JJ
=101	=101	=101	=101	=101	=101	=101
4BB-/	4BBB-/	4BB-/	4B-\	4d\	8b-\L	8f\L
.	.	.	.	.	8f\	8B-\
8r	8r	8r	8r	8r	[8g\J	[8g\J
4B-\	4BB-\	4B-\	4B-\	4e-\	8g\L]	8g\L]
.	.	.	.	.	(16f\LL	8f\
.	.	.	.	.	16e-\)	.
8r	8r	8r	8r	8r	16d\	[8b-\J
.	.	.	.	.	16c\JJ	.
4BB-/	4BBB-/	4BB-/	4B-\	4f\	(16d\LL	8b-\L]
.	.	.	.	.	16e-\	.
.	.	.	.	.	16f\)	8f\
.	.	.	.	.	16e-\	.
8r	8r	8r	8r	8r	16d\	[8g\J
.	.	.	.	.	16c\JJ	.
4B-\	4BB-\	4B-\	4.r	4.r	(16B-\LL	8g\L]
.	.	.	.	.	16c\	.
.	.	.	.	.	16d\)	8f\
.	.	.	.	.	16c\	.
8r	8r	8BB-/	.	.	16B-\	[8b-\J
.	.	.	.	.	16A\JJ	.
=102	=102	=102	=102	=102	=102	=102
1.r	1.r	4E-\	1.r	1.r	(16G/LL	8b-\L]
.	.	.	.	.	16A/	.
.	.	.	.	.	16B-/)	8g\
.	.	.	.	.	16d/	.
.	.	8C/	.	.	16c/	[8ee-\J
.	.	.	.	.	16B-/JJ	.
.	.	4F\	.	.	(16A/LL	8ee-\L]
.	.	.	.	.	16B-/	.
.	.	.	.	.	16c/)	8a\
.	.	.	.	.	16e-/	.
.	.	8A\	.	.	16d/	8ff\J
.	.	.	.	.	16c/JJ	.
.	.	8B-\L	.	.	(16B-/LL	8dd\L
.	.	.	.	.	16A/	.
.	.	8D\	.	.	16B-/)	8b-\
.	.	.	.	.	16d/	.
.	.	8F\J	.	.	16c/	8a\J
.	.	.	.	.	16e-/JJ	.
.	.	4BB-/	.	.	16d\LL	16b-\LL
.	.	.	.	.	16f\	16f\
.	.	.	.	.	16d\	16d\
.	.	.	.	.	16B-\	16B-\
.	.	8r	.	.	16d\	16d\
.	.	.	.	.	16f\JJ	16f\JJ
=103	=103	=103	=103	=103	=103	=103
4B-\	4BB-\	4B-\	4d\	4f\	(8b-\L	(8b-\L
.	.	.	.	.	8a\)	8a\)
8r	8r	8r	8r	8r	8b-\J	8b-\J
4A\	4AA\	4A\	4B-\	4f\	(8d\L	(8d\L
.	.	.	.	.	8f\)	8f\)
8r	8r	8r	8r	8r	8b-\J	8b-\J
4G\	4GG\	4G\	4d\	4g\	(8b-\L	(8b-\L
.	.	.	.	.	8a\)	8a\)
8r	8r	8r	8r	8r	8b-\J	8b-\J
4F\	4FF\	4F\	4f\	4b-\	(8d\L	(8d\L
.	.	.	.	.	8f\)	8f\)
8r	8r	8r	8r	8r	8b-\J	8b-\J
=104	=104	=104	=104	=104	=104	=104
4E-\	4EE-\	4E-\	4g\	4b-\	(8cc\L	(8cc\L
.	.	.	.	.	8b-\)	8b-\)
8r	8r	8r	8r	8r	8cc\J	8cc\J
4F\	4FF\	4F\	4f\	4a\	(8f\L	(8f\L
.	.	.	.	.	8a\)	8a\)
8r	8r	8r	8r	8r	8cc\J	8cc\J
4BB-/	4BBB-/	4BB-/	(8f\L	(8b-\L	(8dd\L	(8dd\L
.	.	.	8e-\)	8a\)	8cc\)	8cc\)
8F\	8FF\	8F\	8f\J	8b-\J	8dd\J	8dd\J
(8B-\L	(8BB-\L	(8B-\L	(8d\L	4f\	4b-\	4b-\
8A\)	8AA\)	8A\)	8c\)	.	.	.
8B-\J	8BB-\J	8B-\J	8d\J	8f\	[8dd\	[8dd\
=105	=105	=105	=105	=105	=105	=105
4E\	4EE\	4E\	4G/	4g\	8dd\L]	8dd\L]
.	.	.	.	.	8g\	8g\
8r	8r	8r	8r	8r	[8b-\J	[8b-\J
4C/	4CC/	4C/	4e\	4g\	8b-\L]	8b-\L]
.	.	.	.	.	8e\	8e\
8r	8r	8r	8r	8r	[8cc\J	[8cc\J
4D\	4DD\	4D\	4A\	4f\	8cc\L]	8cc\L]
.	.	.	.	.	8f\	8f\
8r	8r	8r	8r	8r	[8a\J	[8a\J
4BB-/	4BBB-/	4BB-/	4d\	4f\	8a\L]	8a\L]
.	.	.	.	.	8d\	8d\
8r	8r	8r	8r	8r	[8b-\J	[8b-\J
=106	=106	=106	=106	=106	=106	=106
4C/	4CC/	4C/	4G/	4e\	8b-\L]	8b-\L]
.	.	.	.	.	8e\	8e\
8BB-/	8BBB-/	8BB-/	8E/	8c\	[8g\J	[8g\J
4AA/	4AAA/	4AA/	4A\	4c\	8g\L]	8g\L]
.	.	.	.	.	8c\	8c\
8GG/	8GGG/	8GG/	8B-\	8e\	8b-\J	8b-\J
4FF/	4FFF/	4FF/	(8c\L	(8f\L	(8a\L	(8a\L
.	.	.	8B-\)	8e\)	8g\)	8g\)
8C/	8CC/	8C/	8c\J	8f\J	8a\J	8a\J
(8F\L	(8FF\L	(8F\L	(8A/L	4c\	(8f\L	(8f\L
8E-\)	8EE-\)	8E-\)	8G/)	.	8a\)	8a\)
8F\J	8FF\J	8F\J	8A/J	8f\	8cc\J	8cc\J
=107	=107	=107	=107	=107	=107	=107
4D\	4DD\	4D\	4B-\	4f\	8ff\L	8ff\L
.	.	.	.	.	8b-\	8b-\
8r	8r	8r	8r	8r	[8dd\J	[8dd\J
4G\	4GG\	4G\	4B-\	4f\	8dd\L]	8dd\L]
.	.	.	.	.	8g\	8g\
8r	8r	8r	8r	8r	[8ee-\J	[8ee-\J
4C/	4CC/	4C/	4B-\	4e-\	8ee-\L]	8ee-\L]
.	.	.	.	.	8a\	8a\
8r	8r	8r	8r	8r	[8cc\J	[8cc\J
4F\	4FF\	4F\	4A\	4f\	8cc\L]	8cc\L]
.	.	.	.	.	8f\	8f\
8r	8r	8r	8r	8r	[8dd\J	[8dd\J
=108	=108	=108	=108	=108	=108	=108
4BB-/	4BBB-/	4BB-/	4B-\	8f\L	8dd\L]	8dd\L]
.	.	.	.	8d\	8f\	8f\
8B-\	8BB-\	8B-\	8d\	8f\J	[8b-\J	[8b-\J
4BB-/	4BBB-/	4BB-/	4F/	8d\L	8b-\L]	8b-\L]
.	.	.	.	8B-\	8d\	8d\
8B-\	8BB-\	8B-\	8B-\	8d\J	[8f\J	[8f\J
4BB-/	4BBB-/	4BB-/	8D/L	8B-\L	8f\L]	8f\L]
.	.	.	8F/	8d\	8B-\	8B-\
8B-\	8BB-\	8B-\	8B-/J	8f\J	8d\J	8d\J
4BB-/	4BBB-/	4BB-/	8d\L	8b-\L	8f\L	8f\L
.	.	.	8B-\	8f\	8d\	8d\
8B-\	8BB-\	8B-\	8d\J	8b-\J	8f\J	8f\J
=109	=109	=109	=109	=109	=109	=109
4BB-/	4BBB-/	4BB-/	4f\	4d\	8b-\L	8b-\L
.	.	.	.	.	8f\	8f\
8r	8r	8r	8r	8r	[8g\J	[8g\J
4B-\	4BB-\	4B-\	4B-\	4e-\	8g\L]	8g\L]
.	.	.	.	.	8f\	8f\
8r	8r	8r	8r	8r	[8b-\J	[8b-\J
4BB-/	4BBB-/	4BB-/	4F/	4d\	8b-\L]	8b-\L]
.	.	.	.	.	8f\	8f\
8r	8r	8r	8r	8r	[8g\J	[8g\J
4B-\	4BB-\	4B-\	4B-\	4e-\	8g\L]	8g\L]
.	.	.	.	.	8f\	8f\
8BB-/	8BBB-/	8BB-/	8F/	8d\	[8b-\J	[8b-\J
=110	=110	=110	=110	=110	=110	=110
4E-\	4EE-\	4E-\	4G/	4e-\	8b-\L]	8b-\L]
.	.	.	.	.	8g\	8g\
8C/	8CC/	8C/	8c\	8g\	[8ee-\J	[8ee-\J
4F\	4FF\	4F\	4A\	4f\	8ee-\L]	8ee-\L]
.	.	.	.	.	8a\	8a\
8AA/	8AAA/	8A\	8F/	8cc\	8ff\J	8ff\J
8BB-/L	8BBB-/L	8B-\L	8f\L	8b-\L	8dd\L	8dd\L
8DD/	8DDD/	8D\	8d\	8f\	8b-\	8b-\
8FF/J	8FFF/J	8F\J	8c\J	8f\J	8at\J	8at\J
4BBB-;/	4BBBB-;/	4BB-;/	4d;\	4f;\	4b-;\	4b-;\
==	==	==	==	==	==	==
*-	*-	*-	*-	*-	*-	*-
!!!CDT: 1685/3//-1750/7/28
!!!OCY: Deutschland
!!!ODE: His Royal Highness Christian Ludwig, Margrave of Brandenburg.
!!!ODT: 1708//-1710//
!!!OPC: ?Weimar
!!!PPR: Peters
!!!PDT: 1850
!!!PPP: Leipzig
!!!AGN: concerto grosso
!!!AST: baroque, orchestral
!!!AMT: compound quadruple
!!!SCA: Bach-Werke-Verzeichnis
!!!YOR: Bach Gesellschaft, xix,167
!!!YOY: 1871; although imprint says 1869
!!!AIN: cemba; clavi
!!!EEV: 1.0
!!!RDT: 1994 April 23
!!!YER: 1994 October 23
!!!YEN: United States of America
!!!EFL: 3/3
!!!EED: W.B. Hewlett
!!!VTS: 4197822583
